; generated by PrusaSlicer 2.3.1+win64 on 2022-05-26 at 20:30:08 UTC

; 

; external perimeters extrusion width = 0.45mm
; perimeters extrusion width = 0.45mm
; infill extrusion width = 0.45mm
; solid infill extrusion width = 0.45mm
; top infill extrusion width = 0.40mm
; first layer extrusion width = 0.42mm

M73 P0 R5
M73 Q0 S5
M201 X1000 Y1000 Z200 E5000 ; sets maximum accelerations, mm/sec^2
M203 X200 Y200 Z12 E120 ; sets maximum feedrates, mm/sec
M204 P1250 R1250 T1250 ; sets acceleration (P, T) and retract acceleration (R), mm/sec^2
M205 X8.00 Y8.00 Z0.40 E4.50 ; sets the jerk limits, mm/sec
M205 S0 T0 ; sets the minimum extruding and travel feed rate, mm/sec
M107
;TYPE:Custom
M862.3 P "MK3S" ; printer model check
M862.1 P0.4 ; nozzle diameter check
M115 U3.11.0 ; tell printer latest fw version
G90 ; use absolute coordinates
M83 ; extruder relative mode
M104 S215 ; set extruder temp
M140 S60 ; set bed temp
M190 S60 ; wait for bed temp
M109 S215 ; wait for extruder temp
G28 W ; home all without mesh bed level
G80 ; mesh bed leveling
G1 Y-3.0 F1000.0 ; go outside print area
G92 E0.0
G1 X60.0 E9.0 F1000.0 ; intro line
M73 P1 R4
M73 Q1 S5
G1 X100.0 E12.5 F1000.0 ; intro line
G92 E0.0
M221 S95

; Don't change E values below. Excessive value can damage the printer.

M907 E538 ; set extruder motor current
G21 ; set units to millimeters
G90 ; use absolute coordinates
M83 ; use relative distances for extrusion
M900 K0.05 ; Filament gcode LA 1.5
M900 K30 ; Filament gcode LA 1.0
;LAYER_CHANGE
;Z:0.2
;HEIGHT:0.2
;BEFORE_LAYER_CHANGE
G92 E0.0
;0.2


M73 P2 R4
M73 Q2 S4
G1 E-0.80000 F2100.000
G1 Z0.400 F10800.000
;AFTER_LAYER_CHANGE
;0.2
G1 X115.618 Y91.778
G1 Z0.200
G1 E0.80000 F2100.000
M204 S1000
;TYPE:Skirt
;WIDTH:0.42
G1 F1200.000
G1 X116.134 Y91.349 E0.02103
G1 X116.738 Y91.057 E0.02103
G1 X117.398 Y90.920 E0.02116
G1 X132.434 Y90.911 E0.47144
M73 Q3 S4
G1 X133.428 Y91.098 E0.03170
G1 X134.287 Y91.631 E0.03170
G1 X134.896 Y92.438 E0.03170
G1 X135.172 Y93.410 E0.03170
G1 X135.184 Y115.576 E0.69499
M73 P3 R4
G1 X135.090 Y116.248 E0.02129
G1 X134.833 Y116.881 E0.02141
G1 X134.287 Y117.569 E0.02752
G1 X133.242 Y118.332 E0.04059
G1 X132.630 Y118.636 E0.02141
G1 X131.962 Y118.779 E0.02141
G1 X118.270 Y118.788 E0.42931
G1 X117.606 Y118.692 E0.02103
G1 X116.985 Y118.438 E0.02103
G1 X115.916 Y117.695 E0.04082
G1 X115.449 Y117.225 E0.02078
G1 X115.051 Y116.516 E0.02549
G1 X114.876 Y115.722 E0.02549
G1 X114.870 Y93.624 E0.69288
M73 P4 R4
M73 Q4 S4
G1 X114.964 Y92.952 E0.02129
G1 X115.221 Y92.319 E0.02141
G1 X115.582 Y91.826 E0.01915
;WIPE_START
G1 F8640.000
G1 X116.134 Y91.349 E-0.16835
G1 X116.738 Y91.057 E-0.15487
G1 X117.398 Y90.920 E-0.15581
G1 X118.615 Y90.919 E-0.28096
;WIPE_END
G1 E-0.04000 F2100.000
G1 Z0.600 F10800.000
G1 X133.300 Y91.453
G1 Z0.200
G1 E0.80000 F2100.000
G1 F1200.000
G1 X134.045 Y91.920 E0.02755
G1 X134.568 Y92.626 E0.02755
G1 X134.799 Y93.474 E0.02755
G1 X134.807 Y115.565 E0.69267
M73 Q5 S4
G1 X134.723 Y116.160 E0.01882
G1 X134.496 Y116.711 E0.01870
G1 X134.011 Y117.310 E0.02414
G1 X133.026 Y118.023 E0.03815
G1 X132.494 Y118.284 E0.01858
G1 X131.913 Y118.404 E0.01858
G1 X118.282 Y118.412 E0.42741
M73 P5 R4
G1 X117.699 Y118.326 E0.01846
G1 X117.155 Y118.101 E0.01846
G1 X116.157 Y117.405 E0.03814
G1 X115.756 Y117.005 E0.01775
G1 X115.404 Y116.385 E0.02237
G1 X115.252 Y115.684 E0.02249
G1 X115.247 Y93.635 E0.69135
G1 X115.331 Y93.040 E0.01882
G1 X115.558 Y92.489 E0.01870
G1 X115.906 Y92.023 E0.01823
G1 X116.356 Y91.655 E0.01823
G1 X116.882 Y91.407 E0.01823
G1 X117.456 Y91.294 E0.01835
G1 X132.434 Y91.288 E0.46963
M73 P6 R4
M73 Q6 S4
G1 X133.242 Y91.442 E0.02578
; printing object LTS_Pin_v0.1.stl id:0 copy 0
;WIPE_START
G1 F8640.000
G1 X134.045 Y91.920 E-0.21584
G1 X134.568 Y92.626 E-0.20287
G1 X134.799 Y93.474 E-0.20287
G1 X134.799 Y94.073 E-0.13842
;WIPE_END
G1 E-0.04000 F2100.000
G1 Z0.600 F10800.000
G1 X131.243 Y94.452
G1 Z0.200
G1 E0.80000 F2100.000
;TYPE:Perimeter
G1 F1200.000
G1 X131.243 Y94.548 E0.00301
G1 X125.316 Y94.548 E0.18584
G1 X125.316 Y97.548 E0.09406
G1 X124.777 Y97.548 E0.01691
G1 X124.777 Y94.548 E0.09406
G1 X118.811 Y94.548 E0.18704
G1 X118.811 Y94.452 E0.00301
G1 X131.183 Y94.452 E0.38790
G1 X131.092 Y94.925 F10800.000
;TYPE:External perimeter
G1 F1200.000
G1 X125.693 Y94.925 E0.16928
M73 Q7 S4
G1 X125.693 Y97.925 E0.09406
G1 X124.399 Y97.925 E0.04055
M73 P7 R4
G1 X124.399 Y94.925 E0.09406
G1 X119.039 Y94.925 E0.16808
G1 X119.039 Y115.221 E0.63638
G1 X118.434 Y115.221 E0.01896
G1 X118.434 Y94.075 E0.66303
M73 Q8 S4
G1 X131.620 Y94.075 E0.41343
M73 P8 R4
G1 X131.620 Y115.221 E0.66303
G1 X131.092 Y115.221 E0.01656
G1 X131.092 Y94.985 E0.63450
M73 Q9 S4
G1 X131.088 Y94.525 F10800.000
G1 X131.356 Y94.736
;TYPE:Gap fill
;WIDTH:0.193892
G1 F1200.000
G1 X131.356 Y115.033 E0.25479
;WIPE_START
M73 P9 R4
G1 F8640.000
G1 X131.356 Y111.742 E-0.76000
;WIPE_END
G1 E-0.04000 F2100.000
G1 Z0.600 F10800.000
G1 X118.736 Y115.033
G1 Z0.200
G1 E0.80000 F2100.000
;WIDTH:0.27043
G1 F1200.000
G1 X118.736 Y94.736 E0.38396
;WIPE_START
M73 Q10 S4
G1 F8640.000
G1 X118.736 Y98.028 E-0.76000
;WIPE_END
G1 E-0.04000 F2100.000
G1 Z0.600 F10800.000
G1 X125.046 Y94.641
M73 P10 R4
G1 Z0.200
G1 E0.80000 F2100.000
;WIDTH:0.205102
G1 F1200.000
G1 X125.046 Y97.359 E0.03666
; stop printing object LTS_Pin_v0.1.stl id:0 copy 0
M106 S84.15
;LAYER_CHANGE
;Z:0.4
;HEIGHT:0.2
;BEFORE_LAYER_CHANGE
G92 E0.0
;0.4


;WIPE_START
G1 F8640.000
G1 X125.046 Y94.641 E-0.62777
;WIPE_END
G1 E-0.17223 F2100.000
G1 Z0.600 F10800.000
;AFTER_LAYER_CHANGE
;0.4
M104 S210 ; set temperature
G1 X133.428 Y91.098
G1 Z0.400
G1 E0.80000 F2100.000
;TYPE:Skirt
;WIDTH:0.42
G1 F1918
G1 X134.287 Y91.631 E0.03170
G1 X134.896 Y92.438 E0.03170
G1 X135.172 Y93.410 E0.03170
G1 X135.184 Y115.576 E0.69499
G1 X135.090 Y116.248 E0.02129
G1 X134.833 Y116.881 E0.02141
G1 X134.287 Y117.569 E0.02752
G1 X133.242 Y118.332 E0.04059
G1 X132.630 Y118.636 E0.02141
G1 X131.962 Y118.779 E0.02141
G1 X118.270 Y118.788 E0.42931
G1 X117.606 Y118.692 E0.02103
G1 X116.985 Y118.438 E0.02103
G1 X115.916 Y117.695 E0.04082
G1 X115.449 Y117.225 E0.02078
G1 X115.051 Y116.516 E0.02549
G1 X114.876 Y115.722 E0.02549
G1 X114.870 Y93.624 E0.69288
M73 P11 R4
M73 Q11 S4
G1 X114.964 Y92.952 E0.02129
G1 X115.221 Y92.319 E0.02141
G1 X115.618 Y91.778 E0.02103
G1 X116.134 Y91.349 E0.02103
G1 X116.738 Y91.057 E0.02103
G1 X117.398 Y90.920 E0.02116
G1 X132.434 Y90.911 E0.47144
G1 X133.369 Y91.087 E0.02982
G1 X133.299 Y91.453 F10800.000
G1 F1918
G1 X134.045 Y91.920 E0.02760
G1 X134.568 Y92.626 E0.02755
G1 X134.799 Y93.474 E0.02755
G1 X134.807 Y115.565 E0.69267
G1 X134.723 Y116.160 E0.01882
G1 X134.496 Y116.711 E0.01870
G1 X134.011 Y117.310 E0.02414
G1 X133.026 Y118.023 E0.03815
G1 X132.494 Y118.284 E0.01858
G1 X131.913 Y118.404 E0.01858
G1 X118.282 Y118.412 E0.42741
G1 X117.699 Y118.326 E0.01846
G1 X117.155 Y118.101 E0.01846
G1 X116.157 Y117.405 E0.03814
G1 X115.756 Y117.005 E0.01775
G1 X115.404 Y116.385 E0.02237
M73 Q12 S4
G1 X115.252 Y115.684 E0.02249
G1 X115.247 Y93.635 E0.69135
M73 P12 R4
G1 X115.331 Y93.040 E0.01882
G1 X115.558 Y92.489 E0.01870
G1 X115.906 Y92.023 E0.01823
G1 X116.356 Y91.655 E0.01823
G1 X116.882 Y91.407 E0.01823
G1 X117.456 Y91.294 E0.01835
G1 X132.434 Y91.288 E0.46963
G1 X133.240 Y91.442 E0.02573
; printing object LTS_Pin_v0.1.stl id:0 copy 0
;WIPE_START
G1 F8640.000
G1 X134.045 Y91.920 E-0.21619
G1 X134.568 Y92.626 E-0.20287
G1 X134.799 Y93.474 E-0.20287
G1 X134.799 Y94.072 E-0.13807
;WIPE_END
G1 E-0.04000 F2100.000
G1 Z0.800 F10800.000
G1 X131.598 Y94.297
G1 Z0.400
G1 E0.80000 F2100.000
M204 S800
;TYPE:Perimeter
;WIDTH:0.45
G1 F1918
G1 X131.598 Y115.203 E0.70764
G1 X131.114 Y115.203 E0.01638
G1 X131.114 Y94.703 E0.69390
M73 P13 R4
M73 Q13 S4
G1 X125.671 Y94.703 E0.18424
G1 X125.671 Y97.703 E0.10155
G1 X124.422 Y97.703 E0.04229
G1 X124.422 Y94.703 E0.10155
G1 X119.017 Y94.703 E0.18295
G1 X119.017 Y115.203 E0.69390
G1 X118.456 Y115.203 E0.01897
G1 X118.456 Y94.297 E0.70764
G1 X131.538 Y94.297 E0.44280
M204 S1000
;WIPE_START
M73 Q14 S4
G1 F8640.000
G1 X131.547 Y97.588 E-0.76000
;WIPE_END
G1 E-0.04000 F2100.000
G1 Z0.800 F10800.000
M73 P14 R4
G1 X130.707 Y95.110
G1 Z0.400
G1 E0.80000 F2100.000
M204 S800
;TYPE:External perimeter
G1 F1918
G1 X126.078 Y95.110 E0.15668
G1 X126.078 Y98.110 E0.10155
G1 X124.014 Y98.110 E0.06984
G1 X124.014 Y95.110 E0.10155
G1 X119.424 Y95.110 E0.15539
G1 X119.424 Y115.419 E0.68742
G1 X119.153 Y115.610 E0.01123
G1 X118.320 Y115.610 E0.02820
G1 X118.049 Y115.419 E0.01123
G1 X118.049 Y93.890 E0.72872
G1 X132.005 Y93.890 E0.47238
M73 P15 R4
M73 Q15 S4
G1 X132.005 Y115.419 E0.72872
G1 X131.734 Y115.610 E0.01123
G1 X130.978 Y115.610 E0.02561
G1 X130.707 Y115.419 E0.01123
G1 X130.707 Y95.170 E0.68539
M204 S1000
G1 X130.705 Y94.710 F10800.000
G1 X131.356 Y94.501
;TYPE:Gap fill
;WIDTH:0.119734
G1 F1918
G1 X131.356 Y114.999 E0.13093
;WIPE_START
G1 F8640.000
G1 X131.356 Y111.708 E-0.76000
;WIPE_END
G1 E-0.04000 F2100.000
G1 Z0.800 F10800.000
G1 X118.736 Y114.999
M73 Q16 S4
G1 Z0.400
G1 E0.80000 F2100.000
;WIDTH:0.196272
G1 F1918
G1 X118.736 Y94.501 E0.26139
;WIPE_START
M73 P16 R4
G1 F8640.000
G1 X118.736 Y97.792 E-0.76000
;WIPE_END
G1 E-0.04000 F2100.000
G1 Z0.800 F10800.000
G1 X125.413 Y94.419
G1 Z0.400
G1 E0.80000 F2100.000
;TYPE:Solid infill
;WIDTH:0.472035
G1 F1918
G1 X124.727 Y95.106 E0.03463
G1 X124.727 Y95.712 E0.02165
G1 X125.366 Y95.074 E0.03223
G1 X125.366 Y95.681 E0.02165
G1 X124.727 Y96.319 E0.03223
G1 X124.727 Y96.926 E0.02165
G1 X125.366 Y96.287 E0.03223
G1 X125.366 Y96.894 E0.02165
G1 X124.679 Y97.581 E0.03464
; stop printing object LTS_Pin_v0.1.stl id:0 copy 0
M106 S170.85
;LAYER_CHANGE
;Z:0.6
;HEIGHT:0.2
;BEFORE_LAYER_CHANGE
G92 E0.0
;0.6


;WIPE_START
G1 F8640.000
G1 X125.366 Y96.894 E-0.22416
G1 X125.366 Y96.287 E-0.14013
G1 X124.727 Y96.926 E-0.20855
G1 X124.727 Y96.319 E-0.14013
G1 X124.871 Y96.175 E-0.04704
;WIPE_END
G1 E-0.04000 F2100.000
G1 Z0.800 F10800.000
;AFTER_LAYER_CHANGE
;0.6
G1 X133.428 Y91.098
G1 Z0.600
G1 E0.80000 F2100.000
;TYPE:Skirt
;WIDTH:0.42
G1 F2080
G1 X134.287 Y91.631 E0.03170
G1 X134.896 Y92.438 E0.03170
G1 X135.172 Y93.410 E0.03170
G1 X135.184 Y115.576 E0.69499
M73 P17 R4
M73 Q17 S4
G1 X135.090 Y116.248 E0.02129
G1 X134.833 Y116.881 E0.02141
G1 X134.287 Y117.569 E0.02752
G1 X133.242 Y118.332 E0.04059
G1 X132.630 Y118.636 E0.02141
G1 X131.962 Y118.779 E0.02141
G1 X118.270 Y118.788 E0.42931
G1 X117.606 Y118.692 E0.02103
G1 X116.985 Y118.438 E0.02103
G1 X115.916 Y117.695 E0.04082
G1 X115.449 Y117.225 E0.02078
G1 X115.051 Y116.516 E0.02549
G1 X114.876 Y115.722 E0.02549
G1 X114.870 Y93.624 E0.69288
G1 X114.964 Y92.952 E0.02129
G1 X115.221 Y92.319 E0.02141
G1 X115.618 Y91.778 E0.02103
G1 X116.134 Y91.349 E0.02103
G1 X116.738 Y91.057 E0.02103
G1 X117.398 Y90.920 E0.02116
G1 X132.434 Y90.911 E0.47144
G1 X133.369 Y91.087 E0.02982
G1 X133.299 Y91.453 F10800.000
G1 F2080
G1 X134.045 Y91.920 E0.02760
G1 X134.568 Y92.626 E0.02755
G1 X134.799 Y93.474 E0.02755
G1 X134.807 Y115.565 E0.69267
M73 Q18 S4
G1 X134.723 Y116.160 E0.01882
G1 X134.496 Y116.711 E0.01870
G1 X134.011 Y117.310 E0.02414
G1 X133.026 Y118.023 E0.03815
M73 P18 R4
G1 X132.494 Y118.284 E0.01858
G1 X131.913 Y118.404 E0.01858
G1 X118.282 Y118.412 E0.42741
G1 X117.699 Y118.326 E0.01846
G1 X117.155 Y118.101 E0.01846
G1 X116.157 Y117.405 E0.03814
G1 X115.756 Y117.005 E0.01775
G1 X115.404 Y116.385 E0.02237
G1 X115.252 Y115.684 E0.02249
G1 X115.247 Y93.635 E0.69135
G1 X115.331 Y93.040 E0.01882
G1 X115.558 Y92.489 E0.01870
G1 X115.906 Y92.023 E0.01823
G1 X116.356 Y91.655 E0.01823
G1 X116.882 Y91.407 E0.01823
G1 X117.456 Y91.294 E0.01835
G1 X132.434 Y91.288 E0.46963
G1 X133.240 Y91.442 E0.02573
; printing object LTS_Pin_v0.1.stl id:0 copy 0
;WIPE_START
G1 F8640.000
G1 X134.045 Y91.920 E-0.21619
G1 X134.568 Y92.626 E-0.20287
G1 X134.799 Y93.474 E-0.20287
G1 X134.799 Y94.072 E-0.13807
;WIPE_END
G1 E-0.04000 F2100.000
G1 Z1.000 F10800.000
G1 X131.798 Y94.297
G1 Z0.600
G1 E0.80000 F2100.000
M204 S800
;TYPE:Perimeter
;WIDTH:0.45
G1 F2080
G1 X131.798 Y115.208 E0.70780
M73 P19 R4
M73 Q19 S4
G1 X131.522 Y115.403 E0.01144
G1 X131.190 Y115.403 E0.01124
G1 X130.914 Y115.208 E0.01144
G1 X130.914 Y94.703 E0.69407
G1 X125.871 Y94.703 E0.17070
G1 X125.871 Y97.703 E0.10155
G1 X124.222 Y97.703 E0.05583
G1 X124.222 Y94.703 E0.10155
G1 X119.217 Y94.703 E0.16941
G1 X119.217 Y115.208 E0.69407
G1 X118.941 Y115.403 E0.01144
G1 X118.532 Y115.403 E0.01383
G1 X118.256 Y115.208 E0.01144
G1 X118.256 Y94.297 E0.70780
M73 Q20 S4
G1 X131.738 Y94.297 E0.45633
M204 S1000
;WIPE_START
M73 P20 R4
G1 F8640.000
G1 X131.747 Y97.588 E-0.76000
;WIPE_END
G1 E-0.04000 F2100.000
G1 Z1.000 F10800.000
G1 X130.507 Y95.110
G1 Z0.600
G1 E0.80000 F2100.000
M204 S800
;TYPE:External perimeter
G1 F2080
G1 X126.278 Y95.110 E0.14315
G1 X126.278 Y98.110 E0.10155
G1 X123.814 Y98.110 E0.08338
G1 X123.814 Y95.110 E0.10155
G1 X119.624 Y95.110 E0.14185
G1 X119.624 Y115.419 E0.68742
G1 X119.070 Y115.810 E0.02295
G1 X118.403 Y115.810 E0.02259
G1 X117.849 Y115.419 E0.02295
G1 X117.849 Y93.890 E0.72872
M73 P21 R4
M73 Q21 S4
G1 X132.205 Y93.890 E0.48592
G1 X132.205 Y115.419 E0.72872
G1 X131.651 Y115.810 E0.02295
G1 X131.060 Y115.810 E0.02000
G1 X130.507 Y115.419 E0.02295
G1 X130.507 Y95.170 E0.68539
M204 S1000
G1 X130.503 Y94.710 F10800.000
;WIPE_START
G1 F8640.000
G1 X127.216 Y95.123 E-0.76000
;WIPE_END
G1 E-0.04000 F2100.000
G1 Z1.000 F10800.000
G1 X131.676 Y95.248
G1 Z0.600
G1 E0.80000 F2100.000
;TYPE:Solid infill
;WIDTH:0.452596
G1 F2080
G1 X131.219 Y94.791 E0.02199
G1 X131.219 Y95.370 E0.01974
G1 X131.493 Y95.644 E0.01317
G1 X131.493 Y96.223 E0.01974
G1 X131.219 Y95.950 E0.01317
G1 X131.219 Y96.529 E0.01974
G1 X131.493 Y96.803 E0.01317
M73 Q22 S4
G1 X131.493 Y97.382 E0.01974
G1 X131.219 Y97.109 E0.01317
G1 X131.219 Y97.688 E0.01974
G1 X131.493 Y97.961 E0.01317
G1 X131.493 Y98.541 E0.01974
G1 X131.219 Y98.267 E0.01317
G1 X131.219 Y98.847 E0.01974
G1 X131.493 Y99.120 E0.01317
G1 X131.493 Y99.699 E0.01974
M73 P22 R4
G1 X131.219 Y99.426 E0.01317
G1 X131.219 Y100.005 E0.01974
G1 X131.493 Y100.279 E0.01317
G1 X131.493 Y100.858 E0.01974
G1 X131.219 Y100.585 E0.01317
G1 X131.219 Y101.164 E0.01974
G1 X131.493 Y101.437 E0.01317
G1 X131.493 Y102.017 E0.01974
G1 X131.219 Y101.744 E0.01317
G1 X131.219 Y102.323 E0.01974
G1 X131.493 Y102.596 E0.01317
G1 X131.493 Y103.176 E0.01974
G1 X131.219 Y102.902 E0.01317
G1 X131.219 Y103.482 E0.01974
G1 X131.493 Y103.755 E0.01317
G1 X131.493 Y104.334 E0.01974
G1 X131.219 Y104.061 E0.01317
G1 X131.219 Y104.640 E0.01974
G1 X131.493 Y104.914 E0.01317
G1 X131.493 Y105.493 E0.01974
G1 X131.219 Y105.220 E0.01317
G1 X131.219 Y105.799 E0.01974
G1 X131.493 Y106.072 E0.01317
G1 X131.493 Y106.652 E0.01974
G1 X131.219 Y106.379 E0.01317
G1 X131.219 Y106.958 E0.01974
G1 X131.493 Y107.231 E0.01317
G1 X131.493 Y107.811 E0.01974
G1 X131.219 Y107.537 E0.01317
G1 X131.219 Y108.117 E0.01974
G1 X131.493 Y108.390 E0.01317
G1 X131.493 Y108.969 E0.01974
G1 X131.219 Y108.696 E0.01317
G1 X131.219 Y109.275 E0.01974
G1 X131.493 Y109.549 E0.01317
G1 X131.493 Y110.128 E0.01974
G1 X131.219 Y109.855 E0.01317
G1 X131.219 Y110.434 E0.01974
G1 X131.493 Y110.707 E0.01317
G1 X131.493 Y111.287 E0.01974
G1 X131.219 Y111.013 E0.01317
G1 X131.219 Y111.593 E0.01974
G1 X131.493 Y111.866 E0.01317
G1 X131.493 Y112.446 E0.01974
G1 X131.219 Y112.172 E0.01317
G1 X131.219 Y112.752 E0.01974
G1 X131.493 Y113.025 E0.01317
G1 X131.493 Y113.604 E0.01974
G1 X131.219 Y113.331 E0.01317
G1 X131.219 Y113.910 E0.01974
G1 X131.493 Y114.184 E0.01317
G1 X131.493 Y114.763 E0.01974
G1 X131.036 Y114.307 E0.02199
;WIPE_START
G1 F8640.000
G1 X131.493 Y114.763 E-0.14906
G1 X131.493 Y114.184 E-0.13378
G1 X131.219 Y113.910 E-0.08924
G1 X131.219 Y113.331 E-0.13378
G1 X131.493 Y113.604 E-0.08924
G1 X131.493 Y113.025 E-0.13378
G1 X131.397 Y112.930 E-0.03112
;WIPE_END
G1 E-0.04000 F2100.000
G1 Z1.000 F10800.000
G1 X118.378 Y114.303
G1 Z0.600
G1 E0.80000 F2100.000
;WIDTH:0.454058
G1 F2080
G1 X118.911 Y114.836 E0.02577
G1 X118.911 Y114.255 E0.01988
