; generated by PrusaSlicer 2.3.1+win64 on 2022-05-26 at 20:30:34 UTC

; 

; external perimeters extrusion width = 0.45mm
; perimeters extrusion width = 0.45mm
; infill extrusion width = 0.45mm
; solid infill extrusion width = 0.45mm
; top infill extrusion width = 0.40mm
; support material extrusion width = 0.35mm
; first layer extrusion width = 0.42mm

M73 P0 R33
M73 Q0 S33
M201 X1000 Y1000 Z200 E5000 ; sets maximum accelerations, mm/sec^2
M203 X200 Y200 Z12 E120 ; sets maximum feedrates, mm/sec
M204 P1250 R1250 T1250 ; sets acceleration (P, T) and retract acceleration (R), mm/sec^2
M205 X8.00 Y8.00 Z0.40 E4.50 ; sets the jerk limits, mm/sec
M205 S0 T0 ; sets the minimum extruding and travel feed rate, mm/sec
M107
;TYPE:Custom
M862.3 P "MK3S" ; printer model check
M862.1 P0.4 ; nozzle diameter check
M115 U3.11.0 ; tell printer latest fw version
G90 ; use absolute coordinates
M83 ; extruder relative mode
M104 S215 ; set extruder temp
M140 S60 ; set bed temp
M190 S60 ; wait for bed temp
M109 S215 ; wait for extruder temp
G28 W ; home all without mesh bed level
G80 ; mesh bed leveling
G1 Y-3.0 F1000.0 ; go outside print area
G92 E0.0
G1 X60.0 E9.0 F1000.0 ; intro line
G1 X100.0 E12.5 F1000.0 ; intro line
G92 E0.0
M221 S95

; Don't change E values below. Excessive value can damage the printer.

M907 E538 ; set extruder motor current
G21 ; set units to millimeters
G90 ; use absolute coordinates
M83 ; use relative distances for extrusion
M900 K0.05 ; Filament gcode LA 1.5
M900 K30 ; Filament gcode LA 1.0
;LAYER_CHANGE
;Z:0.2
;HEIGHT:0.2
;BEFORE_LAYER_CHANGE
G92 E0.0
;0.2


G1 E-0.80000 F2100.000
G1 Z0.400 F10800.000
;AFTER_LAYER_CHANGE
;0.2
G1 X120.784 Y75.133
G1 Z0.200
G1 E0.80000 F2100.000
M204 S1000
;TYPE:Skirt
;WIDTH:0.42
G1 F1200.000
G1 X121.313 Y74.585 E0.02390
G1 X121.989 Y74.232 E0.02390
G1 X122.741 Y74.110 E0.02390
G1 X132.995 Y74.317 E0.32157
G1 X133.684 Y74.553 E0.02284
G1 X134.270 Y74.986 E0.02284
G1 X134.696 Y75.577 E0.02284
G1 X134.924 Y76.268 E0.02284
G1 X137.179 Y95.015 E0.59203
G1 X137.180 Y131.285 E1.13722
G1 X136.993 Y132.132 E0.02720
G1 X136.515 Y132.856 E0.02720
G1 X134.016 Y135.208 E0.10760
G1 X133.501 Y135.517 E0.01882
G1 X132.930 Y135.688 E0.01870
G1 X131.075 Y135.889 E0.05851
G1 X121.218 Y135.890 E0.30906
G1 X119.073 Y135.628 E0.06775
G1 X113.772 Y132.939 E0.18637
G1 X111.140 Y130.459 E0.11339
G1 X110.783 Y129.912 E0.02048
G1 X110.588 Y129.285 E0.02060
G1 X110.556 Y115.874 E0.42049
G1 X110.612 Y115.367 E0.01597
G1 X120.457 Y75.818 E1.27789
G1 X120.758 Y75.188 E0.02190
; printing object LTS_Cap_v1.0.stl id:0 copy 0
;WIPE_START
G1 F8640.000
G1 X121.313 Y74.585 E-0.18921
G1 X121.989 Y74.232 E-0.17602
G1 X122.741 Y74.110 E-0.17602
G1 X123.688 Y74.129 E-0.21875
;WIPE_END
G1 E-0.04000 F2100.000
G1 Z0.600 F10800.000
G1 X122.738 Y76.488
G1 Z0.200
G1 E0.80000 F2100.000
;TYPE:Support material
G1 F1200.000
G1 X122.738 Y84.894 E0.26358
G1 X123.492 Y84.894 E0.02365
G1 X123.492 Y76.657 E0.25826
G1 X124.246 Y76.657 E0.02365
G1 X124.246 Y84.894 E0.25826
G1 X125.000 Y84.894 E0.02365
G1 X125.000 Y76.657 E0.25826
G1 X125.754 Y76.657 E0.02365
G1 X125.754 Y80.786 E0.12945
G1 X125.787 Y80.755 E0.00142
G1 X126.217 Y80.755 E0.01346
G1 X126.508 Y80.800 E0.00926
G1 X126.508 Y76.657 E0.12990
G1 X127.262 Y76.657 E0.02365
G1 X127.262 Y81.356 E0.14734
G1 X127.380 Y81.608 E0.00870
G1 X127.441 Y81.848 E0.00779
G1 X128.017 Y86.823 E0.15702
G1 X128.017 Y76.657 E0.31874
G1 X128.771 Y76.657 E0.02365
G1 X128.771 Y93.341 E0.52311
G1 X129.525 Y99.859 E0.20573
M73 P1 R33
M73 Q1 S33
G1 X129.525 Y76.657 E0.72748
G1 X130.279 Y76.657 E0.02365
G1 X130.279 Y106.377 E0.93185
G1 X131.033 Y112.895 E0.20573
G1 X131.033 Y76.657 E1.13621
G1 X131.787 Y76.657 E0.02365
G1 X131.787 Y133.343 E1.77734
G1 X132.542 Y133.343 E0.02365
G1 X132.542 Y76.657 E1.77734
G1 X132.579 Y76.657 E0.00118
G1 X132.579 Y95.114 E0.57869
G1 X133.296 Y95.114 E0.02247
G1 X133.296 Y131.036 E1.12631
G1 X134.050 Y131.036 E0.02365
G1 X134.050 Y95.114 E1.12631
G1 X134.804 Y95.114 E0.02365
G1 X134.804 Y131.205 E1.13163
;WIPE_START
G1 F8640.000
G1 X134.804 Y127.914 E-0.76000
;WIPE_END
G1 E-0.04000 F2100.000
G1 Z0.600 F10800.000
G1 X131.033 Y133.512
G1 Z0.200
G1 E0.80000 F2100.000
G1 F1200.000
G1 X131.033 Y121.854 E0.36554
G1 X130.847 Y122.637 E0.02524
G1 X130.682 Y123.202 E0.01843
G1 X130.502 Y123.726 E0.01739
G1 X130.279 Y124.283 E0.01881
G1 X130.279 Y133.343 E0.28405
G1 X129.525 Y133.343 E0.02365
G1 X129.525 Y125.715 E0.23917
G1 X129.196 Y126.195 E0.01825
G1 X128.771 Y126.725 E0.02129
G1 X128.771 Y133.343 E0.20750
G1 X128.017 Y133.343 E0.02365
G1 X128.017 Y127.481 E0.18379
M73 P2 R33
M73 Q2 S33
G1 X127.581 Y127.832 E0.01755
G1 X127.262 Y128.053 E0.01215
G1 X127.262 Y133.343 E0.16585
G1 X126.508 Y133.343 E0.02365
G1 X126.508 Y128.486 E0.15227
G1 X125.754 Y128.803 E0.02564
G1 X125.754 Y133.343 E0.14234
G1 X125.000 Y133.343 E0.02365
G1 X125.000 Y130.720 E0.08224
G1 X124.246 Y130.720 E0.02365
G1 X124.246 Y133.343 E0.08224
G1 X123.492 Y133.343 E0.02365
G1 X123.492 Y130.720 E0.08224
G1 X122.738 Y130.720 E0.02365
G1 X122.738 Y133.343 E0.08224
G1 X121.983 Y133.343 E0.02365
G1 X121.983 Y108.956 E0.76462
M73 P2 R32
G1 X122.738 Y108.956 E0.02365
G1 X122.738 Y127.729 E0.58859
G1 X122.965 Y127.729 E0.00715
G1 X123.099 Y127.505 E0.00817
G1 X123.228 Y127.356 E0.00618
G1 X123.492 Y127.148 E0.01054
G1 X123.492 Y116.718 E0.32702
G1 X123.777 Y116.937 E0.01127
G1 X123.954 Y117.024 E0.00618
G1 X124.246 Y117.117 E0.00962
G1 X124.246 Y126.887 E0.30632
G1 X124.535 Y126.794 E0.00952
G1 X125.000 Y126.600 E0.01580
G1 X125.000 Y117.400 E0.28847
G1 X125.295 Y117.550 E0.01037
G1 X125.754 Y117.839 E0.01703
G1 X125.754 Y126.162 E0.26096
G1 X126.162 Y125.847 E0.01615
G1 X126.508 Y125.514 E0.01507
G1 X126.508 Y118.486 E0.22035
G1 X126.939 Y118.999 E0.02099
G1 X127.262 Y119.502 E0.01877
G1 X127.262 Y124.827 E0.16695
;WIPE_START
G1 F8640.000
G1 X127.262 Y121.535 E-0.76000
;WIPE_END
G1 E-0.04000 F2100.000
G1 Z0.600 F10800.000
G1 X125.000 Y129.218
G1 Z0.200
G1 E0.80000 F2100.000
G1 F1200.000
G1 X125.000 Y129.022 E0.00613
G1 X124.246 Y129.162 E0.02405
G1 X124.246 Y129.182 E0.00065
G1 X123.492 Y129.254 E0.02375
G1 X123.492 Y129.063 E0.00597
;WIPE_START
G1 F8640.000
G1 X123.492 Y129.254 E-0.04398
G1 X124.246 Y129.182 E-0.17491
G1 X124.246 Y129.162 E-0.00475
G1 X125.000 Y129.022 E-0.17711
G1 X125.000 Y129.218 E-0.04516
;WIPE_END
G1 E-0.35409 F2100.000
G1 Z0.600 F10800.000
G1 X122.972 Y127.933
G1 Z0.200
G1 E0.80000 F2100.000
;TYPE:Support material interface
;WIDTH:0.35
G1 F1200.000
G1 X122.972 Y130.378 E0.06244
G1 X123.479 Y130.378 E0.01295
G1 X123.479 Y129.596 E0.01996
G1 X123.986 Y129.558 E0.01298
G1 X123.986 Y130.378 E0.02093
G1 X124.493 Y130.378 E0.01295
G1 X124.493 Y129.492 E0.02263
G1 X125.000 Y129.395 E0.01318
G1 X125.000 Y130.516 E0.02863
G1 X121.229 Y133.512 F10800.000
;TYPE:Support material
;WIDTH:0.42
G1 F1200.000
G1 X121.229 Y108.956 E0.76994
G1 X120.475 Y108.956 E0.02365
G1 X120.475 Y133.343 E0.76462
G1 X119.728 Y133.343 E0.02342
G1 X119.721 Y113.570 E0.61995
G1 X118.967 Y113.570 E0.02365
G1 X118.967 Y131.036 E0.54761
G1 X118.213 Y131.036 E0.02365
G1 X118.213 Y113.570 E0.54761
M73 Q2 S32
G1 X117.458 Y113.570 E0.02365
G1 X117.458 Y131.036 E0.54761
G1 X116.704 Y131.036 E0.02365
G1 X116.704 Y113.570 E0.54761
G1 X115.950 Y113.570 E0.02365
G1 X115.950 Y131.036 E0.54761
G1 X115.196 Y131.036 E0.02365
G1 X115.196 Y113.570 E0.54761
G1 X115.114 Y113.570 E0.00257
G1 X115.114 Y115.878 E0.07234
G1 X114.442 Y115.878 E0.02107
G1 X114.442 Y128.729 E0.40294
G1 X113.688 Y128.729 E0.02365
G1 X113.688 Y115.878 E0.40294
G1 X112.933 Y115.878 E0.02365
G1 X112.933 Y128.898 E0.40826
G1 X123.492 Y112.167 F10800.000
M73 P3 R32
M73 Q3 S32
G1 F1200.000
G1 X123.492 Y108.787 E0.10600
;WIPE_START
G1 F8640.000
G1 X123.492 Y112.078 E-0.76000
;WIPE_END
G1 E-0.04000 F2100.000
G1 Z0.600 F10800.000
G1 X124.302 Y115.810
G1 Z0.200
G1 E0.80000 F2100.000
;TYPE:Perimeter
G1 F1200.000
G1 X124.278 Y115.743 E0.00225
G1 X126.509 Y84.237 E0.99031
G1 X129.991 Y114.335 E0.94998
G1 X130.138 Y115.927 E0.05013
G1 X130.195 Y117.001 E0.03372
G1 X130.208 Y118.076 E0.03372
G1 X130.173 Y119.151 E0.03372
G1 X130.081 Y120.222 E0.03371
G1 X129.922 Y121.286 E0.03374
G1 X129.754 Y122.068 E0.02506
G1 X129.537 Y122.837 E0.02505
G1 X129.192 Y123.772 E0.03127
G1 X128.878 Y124.436 E0.02301
G1 X128.508 Y125.075 E0.02315
G1 X128.082 Y125.675 E0.02309
G1 X127.598 Y126.227 E0.02301
G1 X127.055 Y126.719 E0.02297
G1 X126.388 Y127.183 E0.02548
G1 X126.941 Y126.761 E0.02180
G1 X127.241 Y126.485 E0.01280
G1 X127.751 Y125.919 E0.02387
G1 X127.995 Y125.592 E0.01280
G1 X128.396 Y124.934 E0.02416
G1 X128.712 Y124.231 E0.02416
G1 X128.845 Y123.845 E0.01279
G1 X129.022 Y123.112 E0.02364
G1 X129.114 Y122.322 E0.02495
G1 X129.105 Y121.551 E0.02418
G1 X129.063 Y121.145 E0.01280
G1 X128.913 Y120.398 E0.02387
G1 X128.797 Y120.007 E0.01280
G1 X128.512 Y119.301 E0.02387
G1 X128.325 Y118.938 E0.01280
G1 X127.909 Y118.289 E0.02416
G1 X127.417 Y117.696 E0.02416
G1 X127.128 Y117.408 E0.01280
G1 X126.541 Y116.923 E0.02387
G1 X126.204 Y116.693 E0.01280
G1 X125.529 Y116.320 E0.02416
G1 X124.817 Y116.034 E0.02407
G1 X124.416 Y115.911 E0.01313
G1 X124.337 Y115.859 E0.00297
G1 X124.113 Y116.170 F10800.000
;TYPE:External perimeter
G1 F1200.000
G1 X123.965 Y115.987 E0.00738
G1 X123.899 Y115.761 E0.00738
G1 X126.324 Y81.614 E1.07337
G1 X126.376 Y81.626 E0.00165
G1 X126.481 Y81.694 E0.00393
G1 X126.560 Y81.792 E0.00395
G1 X126.628 Y81.986 E0.00644
G1 X130.366 Y114.296 E1.01981
G1 X130.514 Y115.899 E0.05050
G1 X130.572 Y116.988 E0.03419
G1 X130.586 Y118.080 E0.03423
G1 X130.550 Y119.173 E0.03430
G1 X130.456 Y120.266 E0.03439
G1 X130.293 Y121.354 E0.03448
G1 X130.120 Y122.158 E0.02580
G1 X129.896 Y122.953 E0.02588
G1 X129.540 Y123.918 E0.03226
G1 X129.213 Y124.611 E0.02402
G1 X128.826 Y125.279 E0.02420
G1 X128.378 Y125.909 E0.02425
G1 X127.867 Y126.491 E0.02428
G1 X127.292 Y127.014 E0.02435
G1 X126.656 Y127.465 E0.02446
G1 X126.206 Y127.718 E0.01618
G1 X125.737 Y127.930 E0.01615
G1 X124.997 Y128.174 E0.02441
G1 X124.237 Y128.332 E0.02437
G1 X123.646 Y128.390 E0.01860
G1 X123.647 Y128.296 E0.00294
G1 X123.687 Y128.131 E0.00531
G1 X123.768 Y127.990 E0.00511
G1 X123.885 Y127.875 E0.00513
G1 X124.032 Y127.796 E0.00524
G1 X124.466 Y127.681 E0.01406
G1 X125.152 Y127.437 E0.02284
G1 X125.804 Y127.110 E0.02288
G1 X126.121 Y126.913 E0.01170
G1 X126.699 Y126.472 E0.02277
G1 X126.973 Y126.219 E0.01170
G1 X127.459 Y125.680 E0.02277
G1 X127.682 Y125.381 E0.01170
G1 X128.062 Y124.758 E0.02288
G1 X128.361 Y124.092 E0.02288
G1 X128.482 Y123.739 E0.01170
G1 X128.650 Y123.046 E0.02237
G1 X128.736 Y122.302 E0.02348
G1 X128.728 Y121.572 E0.02288
G1 X128.689 Y121.201 E0.01170
G1 X128.547 Y120.489 E0.02277
G1 X128.440 Y120.132 E0.01170
G1 X128.169 Y119.458 E0.02277
G1 X127.998 Y119.126 E0.01170
G1 X127.604 Y118.512 E0.02288
G1 X127.138 Y117.951 E0.02288
G1 X126.874 Y117.687 E0.01170
G1 X126.314 Y117.224 E0.02277
G1 X126.006 Y117.014 E0.01170
G1 X125.367 Y116.661 E0.02288
G1 X124.691 Y116.390 E0.02284
G1 X124.263 Y116.259 E0.01404
G1 X124.165 Y116.201 E0.00358
G1 X124.158 Y115.939 F10800.000
;WIPE_START
G1 F8640.000
G1 X123.965 Y115.987 E-0.06749
G1 X123.899 Y115.761 E-0.05436
G1 X124.094 Y113.004 E-0.63815
;WIPE_END
G1 E-0.04000 F2100.000
G1 Z0.600 F10800.000
G1 X129.463 Y121.726
G1 Z0.200
G1 E0.80000 F2100.000
;TYPE:Gap fill
;WIDTH:0.344427
G1 F1200.000
G1 X129.436 Y121.989 E0.00663
;WIDTH:0.319128
G1 X129.414 Y122.160 E0.00396
;WIDTH:0.270133
G1 X129.391 Y122.331 E0.00326
;WIDTH:0.221136
G1 X129.348 Y122.552 E0.00334
;WIDTH:0.184648
G1 X129.307 Y122.762 E0.00252
;WIDTH:0.150649
G1 X129.276 Y122.891 E0.00119
;WIDTH:0.121985
G1 X129.245 Y123.020 E0.00087
;WIPE_START
G1 F8640.000
G1 X129.276 Y122.891 E-0.03069
;WIPE_END
G1 E-0.76931 F2100.000
G1 Z0.600 F10800.000
G1 X126.227 Y127.282
G1 Z0.200
G1 E0.80000 F2100.000
;WIDTH:0.397
G1 F1200.000
G1 X125.988 Y127.421 E0.00815
;WIDTH:0.387114
G1 X125.609 Y127.602 E0.01203
;WIDTH:0.369158
G1 X125.448 Y127.668 E0.00470
;WIDTH:0.343881
G1 X125.288 Y127.734 E0.00434
;WIDTH:0.318604
G1 X124.914 Y127.863 E0.00907
;WIDTH:0.308866
G1 X124.736 Y127.913 E0.00409
;WIDTH:0.283547
G1 X124.558 Y127.963 E0.00370
;WIDTH:0.258227
G1 X124.193 Y128.049 E0.00670
;WIDTH:0.237719
G1 X123.928 Y128.097 E0.00436
;WIPE_START
G1 F8640.000
G1 X124.193 Y128.049 E-0.06216
;WIPE_END
G1 E-0.73784 F2100.000
G1 Z0.600 F10800.000
G1 X126.956 Y89.086
G1 Z0.200
G1 E0.80000 F2100.000
;TYPE:Solid infill
;WIDTH:0.421751
G1 F1200.000
G1 X126.483 Y88.613 E0.02109
G1 X126.447 Y89.113 E0.01580
G1 X126.833 Y89.499 E0.01719
G1 X126.903 Y90.105 E0.01921
G1 X126.412 Y89.613 E0.02189
G1 X126.376 Y90.114 E0.01580
G1 X126.973 Y90.711 E0.02659
G1 X127.043 Y91.316 E0.01921
G1 X126.341 Y90.614 E0.03129
G1 X126.305 Y91.114 E0.01580
G1 X127.113 Y91.922 E0.03599
G1 X127.184 Y92.528 E0.01921
G1 X126.270 Y91.615 E0.04069
G1 X126.235 Y92.115 E0.01580
G1 X127.254 Y93.134 E0.04540
G1 X127.324 Y93.740 E0.01921
G1 X126.199 Y92.615 E0.05010
G1 X126.164 Y93.116 E0.01580
G1 X127.394 Y94.346 E0.05480
G1 X127.464 Y94.951 E0.01921
G1 X126.128 Y93.616 E0.05950
G1 X126.093 Y94.116 E0.01580
G1 X127.534 Y95.557 E0.06420
G1 X127.604 Y96.163 E0.01921
G1 X126.057 Y94.616 E0.06890
G1 X126.022 Y95.117 E0.01580
G1 X127.674 Y96.769 E0.07360
G1 X127.744 Y97.375 E0.01921
G1 X125.987 Y95.617 E0.07830
G1 X125.951 Y96.117 E0.01580
G1 X127.814 Y97.981 E0.08300
G1 X127.885 Y98.587 E0.01921
G1 X125.916 Y96.618 E0.08770
G1 X125.880 Y97.118 E0.01580
G1 X127.955 Y99.192 E0.09241
G1 X128.025 Y99.798 E0.01921
G1 X125.845 Y97.618 E0.09711
G1 X125.809 Y98.119 E0.01580
G1 X128.095 Y100.404 E0.10181
G1 X128.165 Y101.010 E0.01921
G1 X125.774 Y98.619 E0.10651
G1 X125.739 Y99.119 E0.01580
G1 X128.235 Y101.616 E0.11121
G1 X128.305 Y102.222 E0.01921
G1 X125.703 Y99.620 E0.11591
G1 X125.668 Y100.120 E0.01580
G1 X128.375 Y102.827 E0.12061
G1 X128.445 Y103.433 E0.01921
G1 X125.632 Y100.620 E0.12531
G1 X125.597 Y101.121 E0.01580
G1 X128.515 Y104.039 E0.13001
G1 X128.586 Y104.645 E0.01921
G1 X125.561 Y101.621 E0.13472
G1 X125.526 Y102.121 E0.01580
G1 X128.656 Y105.251 E0.13942
G1 X128.726 Y105.857 E0.01921
G1 X125.491 Y102.622 E0.14412
G1 X125.455 Y103.122 E0.01580
G1 X128.796 Y106.463 E0.14882
G1 X128.866 Y107.068 E0.01921
G1 X125.420 Y103.622 E0.15352
G1 X125.384 Y104.123 E0.01580
G1 X128.936 Y107.674 E0.15822
G1 X129.006 Y108.280 E0.01921
G1 X125.349 Y104.623 E0.16292
G1 X125.313 Y105.123 E0.01580
G1 X129.076 Y108.886 E0.16762
G1 X129.146 Y109.492 E0.01921
G1 X125.278 Y105.624 E0.17232
G1 X125.243 Y106.124 E0.01580
G1 X129.216 Y110.098 E0.17702
G1 X129.287 Y110.704 E0.01921
G1 X125.207 Y106.624 E0.18173
G1 X125.172 Y107.124 E0.01580
G1 X129.357 Y111.309 E0.18643
G1 X129.427 Y111.915 E0.01921
G1 X125.136 Y107.625 E0.19113
G1 X125.101 Y108.125 E0.01580
G1 X129.497 Y112.521 E0.19583
M73 P4 R32
M73 Q4 S32
G1 X129.567 Y113.127 E0.01921
G1 X125.065 Y108.625 E0.20053
G1 X125.030 Y109.126 E0.01580
G1 X129.637 Y113.733 E0.20523
G1 X129.707 Y114.339 E0.01921
G1 X124.995 Y109.626 E0.20993
G1 X124.959 Y110.126 E0.01580
G1 X129.762 Y114.929 E0.21396
G1 X129.817 Y115.519 E0.01867
G1 X124.924 Y110.627 E0.21796
G1 X124.888 Y111.127 E0.01580
G1 X129.864 Y116.103 E0.22166
G1 X129.894 Y116.668 E0.01784
G1 X124.853 Y111.627 E0.22457
G1 X124.817 Y112.128 E0.01580
G1 X129.915 Y117.225 E0.22707
G1 X129.922 Y117.768 E0.01710
G1 X124.782 Y112.628 E0.22896
G1 X124.747 Y113.128 E0.01580
G1 X129.918 Y118.300 E0.23038
G1 X129.901 Y118.818 E0.01635
G1 X124.711 Y113.629 E0.23119
G1 X124.676 Y114.129 E0.01580
G1 X129.874 Y119.327 E0.23157
G1 X129.832 Y119.821 E0.01560
G1 X124.640 Y114.629 E0.23126
G1 X124.605 Y115.130 E0.01580
G1 X125.465 Y115.989 E0.03830
G1 X124.911 Y115.767 E0.01879
G1 X124.617 Y115.677 E0.00970
G1 X124.411 Y115.471 E0.00918
;WIPE_START
G1 F8640.000
G1 X124.617 Y115.677 E-0.06729
G1 X124.911 Y115.767 E-0.07108
G1 X125.465 Y115.989 E-0.13771
G1 X124.605 Y115.130 E-0.28073
G1 X124.640 Y114.629 E-0.11581
G1 X124.908 Y114.897 E-0.08738
;WIPE_END
G1 E-0.04000 F2100.000
G1 Z0.600 F10800.000
