; generated by PrusaSlicer 2.3.1+win64 on 2022-05-26 at 20:30:22 UTC

; 

; external perimeters extrusion width = 0.45mm
; perimeters extrusion width = 0.45mm
; infill extrusion width = 0.45mm
; solid infill extrusion width = 0.45mm
; top infill extrusion width = 0.40mm
; first layer extrusion width = 0.42mm

M73 P0 R23
M73 Q0 S23
M201 X1000 Y1000 Z200 E5000 ; sets maximum accelerations, mm/sec^2
M203 X200 Y200 Z12 E120 ; sets maximum feedrates, mm/sec
M204 P1250 R1250 T1250 ; sets acceleration (P, T) and retract acceleration (R), mm/sec^2
M205 X8.00 Y8.00 Z0.40 E4.50 ; sets the jerk limits, mm/sec
M205 S0 T0 ; sets the minimum extruding and travel feed rate, mm/sec
M107
;TYPE:Custom
M862.3 P "MK3S" ; printer model check
M862.1 P0.4 ; nozzle diameter check
M115 U3.11.0 ; tell printer latest fw version
G90 ; use absolute coordinates
M83 ; extruder relative mode
M104 S215 ; set extruder temp
M140 S60 ; set bed temp
M190 S60 ; wait for bed temp
M109 S215 ; wait for extruder temp
G28 W ; home all without mesh bed level
G80 ; mesh bed leveling
G1 Y-3.0 F1000.0 ; go outside print area
G92 E0.0
G1 X60.0 E9.0 F1000.0 ; intro line
G1 X100.0 E12.5 F1000.0 ; intro line
G92 E0.0
M221 S95

; Don't change E values below. Excessive value can damage the printer.

M907 E538 ; set extruder motor current
G21 ; set units to millimeters
G90 ; use absolute coordinates
M83 ; use relative distances for extrusion
M900 K0.05 ; Filament gcode LA 1.5
M900 K30 ; Filament gcode LA 1.0
;LAYER_CHANGE
;Z:0.2
;HEIGHT:0.2
;BEFORE_LAYER_CHANGE
G92 E0.0
;0.2


G1 E-0.80000 F2100.000
G1 Z0.400 F10800.000
;AFTER_LAYER_CHANGE
;0.2
G1 X114.332 Y79.612
G1 Z0.200
G1 E0.80000 F2100.000
M204 S1000
;TYPE:Skirt
;WIDTH:0.42
G1 F1200.000
G1 X115.131 Y78.696 E0.03811
G1 X116.020 Y78.098 E0.03360
G1 X117.203 Y77.696 E0.03917
G1 X117.987 Y77.623 E0.02470
G1 X132.004 Y77.623 E0.43948
G1 X132.840 Y77.705 E0.02635
G1 X133.643 Y77.943 E0.02625
G1 X134.394 Y78.336 E0.02660
G1 X135.017 Y78.831 E0.02494
G1 X135.567 Y79.466 E0.02636
G1 X135.902 Y80.020 E0.02029
G1 X136.197 Y80.758 E0.02494
G1 X136.360 Y81.611 E0.02720
G1 X136.377 Y128.008 E1.45475
G1 X136.205 Y129.214 E0.03822
G1 X135.666 Y130.391 E0.04059
G1 X134.858 Y131.314 E0.03846
G1 X133.784 Y131.996 E0.03987
G1 X132.752 Y132.311 E0.03383
G1 X132.013 Y132.377 E0.02327
G1 X117.985 Y132.377 E0.43984
G1 X116.786 Y132.205 E0.03798
G1 X115.586 Y131.651 E0.04142
G1 X114.614 Y130.774 E0.04107
G1 X113.947 Y129.651 E0.04095
G1 X113.725 Y128.935 E0.02351
G1 X113.637 Y128.336 E0.01898
G1 X113.623 Y81.992 E1.45308
M73 P1 R23
M73 Q1 S23
G1 X113.795 Y80.786 E0.03822
G1 X114.307 Y79.667 E0.03859
; printing object LTS_Base_v1.0.stl id:0 copy 0
;WIPE_START
G1 F8640.000
G1 X115.131 Y78.696 E-0.29393
G1 X116.020 Y78.098 E-0.24743
G1 X116.917 Y77.794 E-0.21864
;WIPE_END
G1 E-0.04000 F2100.000
G1 Z0.600 F10800.000
G1 X117.522 Y81.225
G1 Z0.200
G1 E0.80000 F2100.000
;TYPE:Perimeter
G1 F1200.000
G1 X117.681 Y81.149 E0.00553
G1 X117.905 Y81.096 E0.00722
G1 X132.004 Y81.089 E0.44207
G1 X132.194 Y81.111 E0.00598
G1 X132.480 Y81.226 E0.00967
G1 X132.643 Y81.357 E0.00656
G1 X132.766 Y81.511 E0.00618
G1 X132.859 Y81.699 E0.00657
G1 X132.913 Y82.037 E0.01073
G1 X132.913 Y127.974 E1.44034
G1 X132.863 Y128.285 E0.00986
G1 X132.763 Y128.494 E0.00728
G1 X132.581 Y128.701 E0.00864
G1 X132.376 Y128.827 E0.00754
G1 X132.210 Y128.886 E0.00553
G1 X132.110 Y128.904 E0.00317
G1 X118.026 Y128.913 E0.44161
G1 X117.887 Y128.903 E0.00436
G1 X117.700 Y128.860 E0.00603
G1 X117.441 Y128.718 E0.00924
G1 X117.282 Y128.559 E0.00707
G1 X117.140 Y128.300 E0.00924
G1 X117.097 Y128.113 E0.00603
G1 X117.087 Y127.974 E0.00436
G1 X117.087 Y82.026 E1.44068
G1 X117.137 Y81.715 E0.00986
G1 X117.237 Y81.506 E0.00728
G1 X117.347 Y81.367 E0.00555
G1 X117.473 Y81.259 E0.00519
G1 X117.193 Y80.994 F10800.000
;TYPE:External perimeter
G1 F1200.000
G1 X117.332 Y80.898 E0.00528
G1 X117.555 Y80.791 E0.00776
G1 X117.861 Y80.719 E0.00988
G1 X132.026 Y80.712 E0.44413
G1 X132.277 Y80.742 E0.00792
G1 X132.546 Y80.833 E0.00892
G1 X132.690 Y80.911 E0.00513
G1 X132.911 Y81.089 E0.00890
G1 X133.086 Y81.307 E0.00876
G1 X133.212 Y81.561 E0.00889
G1 X133.258 Y81.718 E0.00512
G1 X133.290 Y82.016 E0.00941
G1 X133.290 Y127.988 E1.44140
G1 X133.277 Y128.169 E0.00571
G1 X133.221 Y128.410 E0.00776
G1 X133.085 Y128.695 E0.00990
G1 X132.931 Y128.889 E0.00776
G1 X132.811 Y129.002 E0.00517
G1 X132.540 Y129.170 E0.00999
G1 X132.306 Y129.252 E0.00776
G1 X132.144 Y129.281 E0.00517
G1 X118.012 Y129.290 E0.44309
G1 X117.831 Y129.277 E0.00570
G1 X117.584 Y129.220 E0.00794
G1 X117.431 Y129.157 E0.00519
G1 X117.217 Y129.023 E0.00794
G1 X116.977 Y128.783 E0.01060
G1 X116.843 Y128.569 E0.00794
G1 X116.780 Y128.416 E0.00519
G1 X116.723 Y128.169 E0.00794
G1 X116.710 Y127.988 E0.00571
G1 X116.710 Y82.012 E1.44152
G1 X116.723 Y81.831 E0.00571
G1 X116.779 Y81.590 E0.00776
G1 X116.915 Y81.305 E0.00990
G1 X117.149 Y81.035 E0.01120
G1 X117.353 Y81.048 F10800.000
;WIPE_START
G1 F8640.000
G1 X117.332 Y80.898 E-0.05265
G1 X117.555 Y80.791 E-0.05712
G1 X117.861 Y80.719 E-0.07275
G1 X120.362 Y80.718 E-0.57748
;WIPE_END
G1 E-0.04000 F2100.000
G1 Z0.600 F10800.000
M73 Q2 S23
G1 X132.097 Y81.214
G1 Z0.200
G1 E0.80000 F2100.000
;TYPE:Solid infill
;WIDTH:0.422657
G1 F1200.000
G1 X132.521 Y81.658 E0.01938
M73 P2 R23
G1 X132.610 Y81.864 E0.00710
G1 X132.630 Y82.284 E0.01327
G1 X131.718 Y81.372 E0.04072
G1 X131.181 Y81.372 E0.01695
G1 X132.630 Y82.821 E0.06469
G1 X132.630 Y83.358 E0.01696
G1 X130.645 Y81.373 E0.08866
G1 X130.108 Y81.373 E0.01695
G1 X132.630 Y83.895 E0.11263
G1 X132.630 Y84.432 E0.01696
G1 X129.571 Y81.373 E0.13659
G1 X129.034 Y81.373 E0.01695
G1 X132.630 Y84.969 E0.16056
G1 X132.630 Y85.506 E0.01696
G1 X128.498 Y81.374 E0.18453
G1 X127.961 Y81.374 E0.01695
G1 X132.630 Y86.043 E0.20850
G1 X132.630 Y86.580 E0.01696
G1 X127.424 Y81.374 E0.23247
G1 X126.887 Y81.375 E0.01695
G1 X132.630 Y87.117 E0.25644
G1 X132.630 Y87.654 E0.01696
G1 X126.351 Y81.375 E0.28041
G1 X125.814 Y81.375 E0.01695
G1 X132.630 Y88.191 E0.30438
G1 X132.630 Y88.728 E0.01696
G1 X125.277 Y81.375 E0.32834
G1 X124.740 Y81.376 E0.01695
G1 X132.630 Y89.265 E0.35231
G1 X132.630 Y89.802 E0.01696
G1 X124.204 Y81.376 E0.37628
G1 X123.667 Y81.376 E0.01695
G1 X132.630 Y90.339 E0.40025
G1 X132.630 Y90.877 E0.01696
G1 X123.130 Y81.376 E0.42422
G1 X122.593 Y81.377 E0.01695
G1 X132.630 Y91.414 E0.44819
G1 X132.630 Y91.951 E0.01696
G1 X122.056 Y81.377 E0.47216
G1 X121.520 Y81.377 E0.01695
G1 X132.630 Y92.488 E0.49613
G1 X132.630 Y93.025 E0.01696
G1 X120.983 Y81.377 E0.52009
G1 X120.446 Y81.378 E0.01695
G1 X132.630 Y93.562 E0.54406
G1 X132.630 Y94.099 E0.01696
G1 X119.909 Y81.378 E0.56803
G1 X119.373 Y81.378 E0.01695
G1 X132.630 Y94.636 E0.59200
G1 X132.630 Y95.173 E0.01696
G1 X118.836 Y81.379 E0.61597
M73 Q3 S23
G1 X118.299 Y81.379 E0.01695
G1 X132.630 Y95.710 E0.63994
M73 P3 R23
G1 X132.630 Y96.247 E0.01696
G1 X117.796 Y81.412 E0.66242
G1 X117.610 Y81.512 E0.00666
G1 X117.492 Y81.645 E0.00562
G1 X132.630 Y96.784 E0.67600
G1 X132.630 Y97.321 E0.01696
G1 X117.370 Y82.061 E0.68143
G1 X117.370 Y82.598 E0.01696
G1 X132.630 Y97.858 E0.68143
G1 X132.630 Y98.395 E0.01696
G1 X117.370 Y83.135 E0.68143
G1 X117.370 Y83.672 E0.01696
G1 X132.630 Y98.932 E0.68143
G1 X132.630 Y99.469 E0.01696
G1 X117.370 Y84.209 E0.68143
M73 Q3 S22
G1 X117.370 Y84.746 E0.01696
G1 X132.630 Y100.006 E0.68143
G1 X132.630 Y100.543 E0.01696
G1 X117.370 Y85.283 E0.68143
G1 X117.370 Y85.820 E0.01696
G1 X132.630 Y101.080 E0.68143
G1 X132.630 Y101.617 E0.01696
G1 X117.370 Y86.357 E0.68143
M73 P3 R22
G1 X117.370 Y86.894 E0.01696
G1 X132.630 Y102.154 E0.68143
M73 P4 R22
M73 Q4 S22
G1 X132.630 Y102.691 E0.01696
G1 X117.370 Y87.431 E0.68143
G1 X117.370 Y87.968 E0.01696
G1 X132.630 Y103.228 E0.68143
G1 X132.630 Y103.765 E0.01696
G1 X117.370 Y88.505 E0.68143
G1 X117.370 Y89.042 E0.01696
G1 X132.630 Y104.302 E0.68143
G1 X132.630 Y104.839 E0.01696
G1 X117.370 Y89.579 E0.68143
G1 X117.370 Y90.116 E0.01696
G1 X132.630 Y105.376 E0.68143
G1 X132.630 Y105.913 E0.01696
G1 X117.370 Y90.653 E0.68143
G1 X117.370 Y91.190 E0.01696
G1 X132.630 Y106.450 E0.68143
G1 X132.630 Y106.987 E0.01696
G1 X117.370 Y91.727 E0.68143
G1 X117.370 Y92.264 E0.01696
G1 X132.630 Y107.524 E0.68143
G1 X132.630 Y108.061 E0.01696
G1 X117.370 Y92.801 E0.68143
G1 X117.370 Y93.338 E0.01696
G1 X132.630 Y108.598 E0.68143
M73 Q5 S22
G1 X132.630 Y109.136 E0.01696
G1 X117.370 Y93.875 E0.68143
M73 P5 R22
G1 X117.370 Y94.412 E0.01696
G1 X132.630 Y109.673 E0.68143
G1 X132.630 Y110.210 E0.01696
G1 X117.370 Y94.949 E0.68143
G1 X117.370 Y95.486 E0.01696
G1 X132.630 Y110.747 E0.68143
G1 X132.630 Y111.284 E0.01696
G1 X117.370 Y96.023 E0.68143
G1 X117.370 Y96.560 E0.01696
G1 X132.630 Y111.821 E0.68143
G1 X132.630 Y112.358 E0.01696
G1 X117.370 Y97.097 E0.68143
G1 X117.370 Y97.634 E0.01696
G1 X132.630 Y112.895 E0.68143
G1 X132.630 Y113.432 E0.01696
G1 X117.370 Y98.171 E0.68143
G1 X117.370 Y98.709 E0.01696
G1 X132.630 Y113.969 E0.68143
G1 X132.630 Y114.506 E0.01696
G1 X117.370 Y99.246 E0.68143
G1 X117.370 Y99.783 E0.01696
G1 X132.630 Y115.043 E0.68143
G1 X132.630 Y115.580 E0.01696
G1 X117.370 Y100.320 E0.68143
M73 P6 R22
M73 Q6 S22
G1 X117.370 Y100.857 E0.01696
G1 X132.630 Y116.117 E0.68143
G1 X132.630 Y116.654 E0.01696
G1 X117.370 Y101.394 E0.68143
G1 X117.370 Y101.931 E0.01696
G1 X132.630 Y117.191 E0.68143
G1 X132.630 Y117.728 E0.01696
G1 X117.370 Y102.468 E0.68143
G1 X117.370 Y103.005 E0.01696
G1 X132.630 Y118.265 E0.68143
G1 X132.630 Y118.802 E0.01696
G1 X117.370 Y103.542 E0.68143
G1 X117.370 Y104.079 E0.01696
G1 X132.630 Y119.339 E0.68143
G1 X132.630 Y119.876 E0.01696
G1 X117.370 Y104.616 E0.68143
G1 X117.370 Y105.153 E0.01696
G1 X132.630 Y120.413 E0.68143
G1 X132.630 Y120.950 E0.01696
G1 X117.370 Y105.690 E0.68143
G1 X117.370 Y106.227 E0.01696
G1 X132.630 Y121.487 E0.68143
G1 X132.630 Y122.024 E0.01696
G1 X117.370 Y106.764 E0.68143
M73 Q7 S22
G1 X117.370 Y107.301 E0.01696
G1 X132.630 Y122.561 E0.68143
M73 P7 R22
G1 X132.630 Y123.098 E0.01696
G1 X117.370 Y107.838 E0.68143
G1 X117.370 Y108.375 E0.01696
G1 X132.630 Y123.635 E0.68143
G1 X132.630 Y124.172 E0.01696
G1 X117.370 Y108.912 E0.68143
G1 X117.370 Y109.449 E0.01696
G1 X132.630 Y124.709 E0.68143
G1 X132.630 Y125.246 E0.01696
G1 X117.370 Y109.986 E0.68143
G1 X117.370 Y110.523 E0.01696
G1 X132.630 Y125.783 E0.68143
G1 X132.630 Y126.320 E0.01696
G1 X117.370 Y111.060 E0.68143
G1 X117.370 Y111.597 E0.01696
G1 X132.630 Y126.857 E0.68143
G1 X132.630 Y127.395 E0.01696
G1 X117.370 Y112.134 E0.68143
G1 X117.370 Y112.671 E0.01696
G1 X132.630 Y127.932 E0.68143
G1 X132.590 Y128.200 E0.00856
G1 X132.512 Y128.351 E0.00537
G1 X117.370 Y113.208 E0.67618
M73 Q7 S21
G1 X117.370 Y113.745 E0.01696
G1 X132.206 Y128.582 E0.66252
M73 Q8 S21
G1 X132.070 Y128.621 E0.00447
G1 X131.709 Y128.621 E0.01141
G1 X117.370 Y114.282 E0.64029
M73 P8 R22
G1 X117.370 Y114.819 E0.01696
G1 X131.172 Y128.622 E0.61633
G1 X130.635 Y128.622 E0.01695
G1 X117.370 Y115.356 E0.59236
M73 P8 R21
G1 X117.370 Y115.893 E0.01696
G1 X130.099 Y128.622 E0.56840
G1 X129.562 Y128.623 E0.01695
G1 X117.370 Y116.430 E0.54443
G1 X117.370 Y116.968 E0.01696
G1 X129.025 Y128.623 E0.52047
G1 X128.489 Y128.623 E0.01695
G1 X117.370 Y117.505 E0.49650
G1 X117.370 Y118.042 E0.01696
G1 X127.952 Y128.624 E0.47254
G1 X127.415 Y128.624 E0.01695
G1 X117.370 Y118.579 E0.44857
G1 X117.370 Y119.116 E0.01696
G1 X126.879 Y128.624 E0.42461
G1 X126.342 Y128.625 E0.01695
G1 X117.370 Y119.653 E0.40064
G1 X117.370 Y120.190 E0.01696
G1 X125.805 Y128.625 E0.37668
G1 X125.269 Y128.625 E0.01695
G1 X117.370 Y120.727 E0.35271
G1 X117.370 Y121.264 E0.01696
G1 X124.732 Y128.626 E0.32875
G1 X124.195 Y128.626 E0.01695
G1 X117.370 Y121.801 E0.30478
G1 X117.370 Y122.338 E0.01696
G1 X123.659 Y128.626 E0.28082
G1 X123.122 Y128.627 E0.01695
G1 X117.370 Y122.875 E0.25685
G1 X117.370 Y123.412 E0.01696
G1 X122.585 Y128.627 E0.23288
G1 X122.048 Y128.628 E0.01695
G1 X117.370 Y123.949 E0.20892
M73 Q9 S21
G1 X117.370 Y124.486 E0.01696
G1 X121.512 Y128.628 E0.18495
G1 X120.975 Y128.628 E0.01695
G1 X117.370 Y125.023 E0.16099
G1 X117.370 Y125.560 E0.01696
G1 X120.438 Y128.629 E0.13702
M73 P9 R21
G1 X119.902 Y128.629 E0.01695
G1 X117.370 Y126.097 E0.11306
G1 X117.370 Y126.634 E0.01696
G1 X119.365 Y128.629 E0.08909
G1 X118.828 Y128.630 E0.01695
G1 X117.370 Y127.171 E0.06513
G1 X117.370 Y127.708 E0.01696
G1 X118.292 Y128.630 E0.04116
G1 X117.929 Y128.622 E0.01145
G1 X117.801 Y128.593 E0.00415
G1 X117.617 Y128.492 E0.00664
G1 X117.208 Y128.084 E0.01824
; stop printing object LTS_Base_v1.0.stl id:0 copy 0
M106 S84.15
;LAYER_CHANGE
;Z:0.4
;HEIGHT:0.2
;BEFORE_LAYER_CHANGE
G92 E0.0
;0.4


;WIPE_START
G1 F8640.000
G1 X117.617 Y128.492 E-0.13335
G1 X117.801 Y128.593 E-0.04858
G1 X117.929 Y128.622 E-0.03035
G1 X118.292 Y128.630 E-0.08370
G1 X117.370 Y127.708 E-0.30102
G1 X117.370 Y127.171 E-0.12400
G1 X117.489 Y127.291 E-0.03900
;WIPE_END
G1 E-0.04000 F2100.000
G1 Z0.600 F10800.000
;AFTER_LAYER_CHANGE
;0.4
M104 S210 ; set temperature
G1 X114.614 Y130.774
G1 Z0.400
G1 E0.80000 F2100.000
;TYPE:Skirt
;WIDTH:0.42
G1 F3000.000
G1 X113.947 Y129.651 E0.04095
G1 X113.725 Y128.935 E0.02351
G1 X113.637 Y128.336 E0.01898
G1 X113.623 Y81.992 E1.45308
G1 X113.795 Y80.786 E0.03822
G1 X114.332 Y79.612 E0.04047
G1 X115.131 Y78.696 E0.03811
G1 X116.020 Y78.098 E0.03360
G1 X117.203 Y77.696 E0.03917
G1 X117.987 Y77.623 E0.02470
G1 X132.004 Y77.623 E0.43948
G1 X132.840 Y77.705 E0.02635
G1 X133.643 Y77.943 E0.02625
G1 X134.394 Y78.336 E0.02660
G1 X135.017 Y78.831 E0.02494
G1 X135.567 Y79.466 E0.02636
G1 X135.902 Y80.020 E0.02029
G1 X136.197 Y80.758 E0.02494
G1 X136.360 Y81.611 E0.02720
G1 X136.377 Y128.008 E1.45475
G1 X136.205 Y129.214 E0.03822
G1 X135.666 Y130.391 E0.04059
G1 X134.858 Y131.314 E0.03846
G1 X133.784 Y131.996 E0.03987
G1 X132.752 Y132.311 E0.03383
G1 X132.013 Y132.377 E0.02327
G1 X117.985 Y132.377 E0.43984
G1 X116.786 Y132.205 E0.03798
G1 X115.586 Y131.651 E0.04142
G1 X114.659 Y130.814 E0.03919
; printing object LTS_Base_v1.0.stl id:0 copy 0
;WIPE_START
G1 F8640.000
G1 X113.947 Y129.651 E-0.31482
G1 X113.725 Y128.935 E-0.17312
G1 X113.637 Y128.336 E-0.13976
G1 X113.637 Y127.763 E-0.13230
;WIPE_END
G1 E-0.04000 F2100.000
G1 Z0.800 F10800.000
G1 X116.790 Y128.371
G1 Z0.400
G1 E0.80000 F2100.000
M204 S800
;TYPE:Perimeter
;WIDTH:0.45
G1 F3600.000
G1 X116.756 Y128.233 E0.00480
G1 X116.732 Y127.971 E0.00893
G1 X116.732 Y82.029 E1.55506
G1 X116.756 Y81.767 E0.00893
G1 X116.790 Y81.629 E0.00480
G1 X116.940 Y81.307 E0.01202
G1 X117.033 Y81.184 E0.00522
G1 X117.201 Y81.019 E0.00797
G1 X117.394 Y80.889 E0.00789
G1 X117.522 Y80.828 E0.00480
G1 X117.856 Y80.742 E0.01168
G1 X132.105 Y80.739 E0.48229
G1 X132.244 Y80.758 E0.00475
G1 X132.501 Y80.839 E0.00914
G1 X132.694 Y80.942 E0.00740
G1 X132.894 Y81.106 E0.00876
G1 X133.058 Y81.306 E0.00876
G1 X133.161 Y81.499 E0.00740
G1 X133.239 Y81.746 E0.00878
G1 X133.268 Y82.032 E0.00972
G1 X133.268 Y127.971 E1.55497
G1 X133.244 Y128.233 E0.00893
G1 X133.210 Y128.371 E0.00480
G1 X133.060 Y128.693 E0.01202
G1 X132.967 Y128.816 E0.00522
G1 X132.790 Y128.990 E0.00840
G1 X132.491 Y129.167 E0.01176
G1 X132.357 Y129.214 E0.00480
G1 X132.131 Y129.258 E0.00782
G1 X118.029 Y129.268 E0.47732
G1 X117.767 Y129.244 E0.00892
G1 X117.629 Y129.210 E0.00480
G1 X117.407 Y129.118 E0.00814
G1 X117.286 Y129.044 E0.00480
G1 X117.105 Y128.895 E0.00793
G1 X116.956 Y128.714 E0.00793
G1 X116.813 Y128.426 E0.01088
M204 S1000
G1 X116.437 Y128.582 F10800.000
M204 S800
;TYPE:External perimeter
G1 F2100.000
G1 X116.354 Y128.300 E0.00995
G1 X116.325 Y127.990 E0.01056
G1 X116.325 Y82.010 E1.55634
G1 X116.354 Y81.700 E0.01056
G1 X116.402 Y81.502 E0.00687
G1 X116.519 Y81.220 E0.01035
G1 X116.601 Y81.080 E0.00551
G1 X116.727 Y80.915 E0.00702
G1 X116.942 Y80.703 E0.01022
G1 X117.192 Y80.534 E0.01020
G1 X117.375 Y80.447 E0.00687
G1 X117.668 Y80.359 E0.01036
G1 X117.825 Y80.335 E0.00538
G1 X132.132 Y80.332 E0.48426
G1 X132.333 Y80.359 E0.00685
G1 X132.660 Y80.462 E0.01161
G1 X132.921 Y80.602 E0.01002
G1 X133.184 Y80.816 E0.01148
