; generated by PrusaSlicer 2.3.1+win64 on 2022-05-26 at 20:14:37 UTC

; 

; external perimeters extrusion width = 0.45mm
; perimeters extrusion width = 0.45mm
; infill extrusion width = 0.45mm
; solid infill extrusion width = 0.45mm
; top infill extrusion width = 0.40mm
; first layer extrusion width = 0.42mm

M73 P0 R26
M73 Q0 S27
M201 X1000 Y1000 Z200 E5000 ; sets maximum accelerations, mm/sec^2
M203 X200 Y200 Z12 E120 ; sets maximum feedrates, mm/sec
M204 P1250 R1250 T1250 ; sets acceleration (P, T) and retract acceleration (R), mm/sec^2
M205 X8.00 Y8.00 Z0.40 E4.50 ; sets the jerk limits, mm/sec
M205 S0 T0 ; sets the minimum extruding and travel feed rate, mm/sec
M107
;TYPE:Custom
M862.3 P "MK3S" ; printer model check
M862.1 P0.4 ; nozzle diameter check
M115 U3.11.0 ; tell printer latest fw version
G90 ; use absolute coordinates
M83 ; extruder relative mode
M104 S215 ; set extruder temp
M140 S60 ; set bed temp
M190 S60 ; wait for bed temp
M109 S215 ; wait for extruder temp
G28 W ; home all without mesh bed level
G80 ; mesh bed leveling
G1 Y-3.0 F1000.0 ; go outside print area
G92 E0.0
G1 X60.0 E9.0 F1000.0 ; intro line
G1 X100.0 E12.5 F1000.0 ; intro line
G92 E0.0
M221 S95

; Don't change E values below. Excessive value can damage the printer.

M907 E538 ; set extruder motor current
G21 ; set units to millimeters
G90 ; use absolute coordinates
M83 ; use relative distances for extrusion
M900 K0.05 ; Filament gcode LA 1.5
M900 K30 ; Filament gcode LA 1.0
;LAYER_CHANGE
;Z:0.2
;HEIGHT:0.2
;BEFORE_LAYER_CHANGE
G92 E0.0
;0.2


M73 Q0 S26
G1 E-0.80000 F2100.000
G1 Z0.400 F10800.000
;AFTER_LAYER_CHANGE
;0.2
G1 X101.451 Y95.675
G1 Z0.200
G1 E0.80000 F2100.000
M204 S1000
;TYPE:Skirt
;WIDTH:0.42
G1 F1200.000
G1 X102.015 Y95.279 E0.02164
G1 X102.664 Y95.035 E0.02172
G1 X128.027 Y89.134 E0.81650
G1 X146.657 Y89.109 E0.58412
G1 X147.677 Y89.304 E0.03254
G1 X148.536 Y89.855 E0.03202
G1 X148.876 Y90.251 E0.01636
G1 X149.131 Y90.702 E0.01624
G1 X149.363 Y91.705 E0.03228
G1 X149.363 Y118.300 E0.83389
G1 X149.242 Y119.002 E0.02232
G1 X148.963 Y119.618 E0.02121
G1 X148.523 Y120.157 E0.02181
G1 X147.961 Y120.563 E0.02173
G1 X147.331 Y120.807 E0.02119
G1 X146.695 Y120.891 E0.02012
G1 X128.005 Y120.863 E0.58601
G1 X102.596 Y114.947 E0.81800
G1 X102.073 Y114.751 E0.01750
G1 X101.593 Y114.446 E0.01784
G1 X101.199 Y114.060 E0.01729
G1 X100.893 Y113.603 E0.01726
G1 X100.667 Y113.023 E0.01952
G1 X100.577 Y112.368 E0.02073
G1 X100.581 Y97.532 E0.46516
G1 X100.705 Y96.845 E0.02190
G1 X101.004 Y96.207 E0.02208
G1 X101.412 Y95.721 E0.01989
; printing object Switch_Jig_12mm_V1.0.stl id:0 copy 0
;WIPE_START
G1 F8640.000
G1 X102.015 Y95.279 E-0.17277
G1 X102.664 Y95.035 E-0.15995
G1 X104.466 Y94.616 E-0.42728
;WIPE_END
G1 E-0.04000 F2100.000
G1 Z0.600 F10800.000
G1 X109.196 Y101.802
G1 Z0.200
G1 E0.80000 F2100.000
;TYPE:Perimeter
G1 F1200.000
G1 X109.388 Y101.557 E0.00976
G1 X109.862 Y101.064 E0.02143
G1 X110.244 Y100.737 E0.01579
G1 X110.807 Y100.341 E0.02158
G1 X111.251 Y100.086 E0.01603
G1 X111.883 Y99.798 E0.02181
G1 X112.373 Y99.626 E0.01627
G1 X113.055 Y99.454 E0.02205
G1 X113.750 Y99.352 E0.02204
G1 X114.332 Y99.317 E0.01826
G1 X115.031 Y99.338 E0.02194
G1 X115.549 Y99.398 E0.01634
G1 X116.231 Y99.538 E0.02184
G1 X116.727 Y99.686 E0.01624
G1 X117.368 Y99.942 E0.02163
G1 X117.821 Y100.172 E0.01594
G1 X118.398 Y100.533 E0.02134
G1 X118.794 Y100.836 E0.01562
G1 X119.259 Y101.263 E0.01981
G1 X119.586 Y101.625 E0.01530
G1 X119.880 Y102.012 E0.01522
G1 X120.225 Y102.584 E0.02093
G1 X120.429 Y103.020 E0.01509
M73 Q1 S26
G1 X120.643 Y103.644 E0.02069
G1 X120.748 Y104.108 E0.01491
G1 X120.822 Y104.762 E0.02065
G1 X120.822 Y105.237 E0.01491
G1 X120.749 Y105.892 E0.02064
G1 X120.644 Y106.356 E0.01494
G1 X120.429 Y106.982 E0.02073
G1 X120.224 Y107.417 E0.01509
G1 X119.877 Y107.992 E0.02105
G1 X119.462 Y108.522 E0.02112
G1 X119.119 Y108.879 E0.01550
M73 P1 R26
G1 X118.605 Y109.318 E0.02120
G1 X118.195 Y109.607 E0.01574
G1 X117.601 Y109.947 E0.02144
G1 X117.137 Y110.161 E0.01603
G1 X116.484 Y110.392 E0.02171
G1 X115.983 Y110.521 E0.01624
G1 X115.296 Y110.636 E0.02183
G1 X114.776 Y110.679 E0.01635
G1 X114.077 Y110.676 E0.02192
G1 X113.556 Y110.629 E0.01641
G1 X112.866 Y110.506 E0.02195
G1 X112.364 Y110.370 E0.01632
G1 X111.711 Y110.130 E0.02182
G1 X111.245 Y109.910 E0.01615
G1 X110.649 Y109.559 E0.02169
G1 X110.240 Y109.263 E0.01584
G1 X109.859 Y108.936 E0.01573
G1 X109.387 Y108.440 E0.02148
G1 X109.082 Y108.047 E0.01559
G1 X108.725 Y107.470 E0.02127
G1 X108.511 Y107.029 E0.01538
G1 X108.284 Y106.392 E0.02120
G1 X108.173 Y105.916 E0.01534
G1 X108.096 Y105.242 E0.02126
G1 X108.097 Y104.755 E0.01526
G1 X108.175 Y104.085 E0.02115
G1 X108.285 Y103.611 E0.01526
G1 X108.509 Y102.973 E0.02120
G1 X108.721 Y102.529 E0.01545
G1 X109.160 Y101.850 E0.02534
G1 X109.457 Y102.082 F10800.000
;TYPE:External perimeter
G1 F1200.000
G1 X109.673 Y101.804 E0.01104
G1 X110.121 Y101.338 E0.02025
G1 X110.476 Y101.035 E0.01465
G1 X111.010 Y100.659 E0.02047
G1 X111.423 Y100.422 E0.01494
G1 X112.024 Y100.148 E0.02072
G1 X112.482 Y99.988 E0.01519
G1 X113.129 Y99.825 E0.02092
G1 X113.789 Y99.727 E0.02093
G1 X114.337 Y99.695 E0.01721
G1 X115.004 Y99.715 E0.02091
G1 X115.489 Y99.771 E0.01533
G1 X116.139 Y99.904 E0.02080
G1 X116.603 Y100.043 E0.01518
G1 X117.212 Y100.286 E0.02057
G1 X117.635 Y100.501 E0.01488
G1 X118.183 Y100.844 E0.02026
G1 X118.552 Y101.125 E0.01454
G1 X118.991 Y101.529 E0.01872
G1 X119.296 Y101.866 E0.01424
G1 X119.567 Y102.224 E0.01409
G1 X119.892 Y102.761 E0.01968
G1 X120.078 Y103.161 E0.01383
G1 X120.279 Y103.747 E0.01942
G1 X120.375 Y104.171 E0.01362
G1 X120.445 Y104.783 E0.01933
G1 X120.445 Y105.216 E0.01358
G1 X120.376 Y105.829 E0.01933
G1 X120.281 Y106.253 E0.01364
G1 X120.079 Y106.840 E0.01944
G1 X119.891 Y107.239 E0.01384
G1 X119.566 Y107.777 E0.01971
G1 X119.176 Y108.275 E0.01981
G1 X118.860 Y108.604 E0.01432
G1 X118.374 Y109.020 E0.02006
G1 X117.992 Y109.288 E0.01464
G1 X117.429 Y109.612 E0.02036
G1 X116.995 Y109.811 E0.01497
G1 X116.374 Y110.031 E0.02065
G1 X115.904 Y110.152 E0.01521
G1 X115.249 Y110.262 E0.02082
G1 X114.762 Y110.301 E0.01534
G1 X114.094 Y110.299 E0.02091
G1 X113.606 Y110.255 E0.01539
G1 X112.949 Y110.138 E0.02092
G1 X112.478 Y110.010 E0.01529
G1 X111.856 Y109.782 E0.02078
G1 X111.421 Y109.577 E0.01509
G1 X110.856 Y109.243 E0.02059
G1 X110.473 Y108.966 E0.01479
G1 X110.119 Y108.662 E0.01464
G1 X109.673 Y108.194 E0.02028
G1 X109.393 Y107.831 E0.01437
G1 X109.055 Y107.288 E0.02004
G1 X108.860 Y106.883 E0.01411
G1 X108.647 Y106.285 E0.01989
G1 X108.545 Y105.851 E0.01398
G1 X108.473 Y105.221 E0.01988
G1 X108.474 Y104.778 E0.01390
G1 X108.547 Y104.150 E0.01982
G1 X108.648 Y103.716 E0.01395
G1 X108.858 Y103.117 E0.01990
G1 X109.053 Y102.710 E0.01415
G1 X109.420 Y102.129 E0.02155
G1 X109.310 Y101.762 F10800.000
;WIPE_START
G1 F8640.000
G1 X109.673 Y101.804 E-0.09516
G1 X110.121 Y101.338 E-0.14909
G1 X110.476 Y101.035 E-0.10788
G1 X111.010 Y100.659 E-0.15075
G1 X111.423 Y100.422 E-0.11001
G1 X112.003 Y100.158 E-0.14711
;WIPE_END
G1 E-0.04000 F2100.000
G1 Z0.600 F10800.000
G1 X103.995 Y98.254
G1 Z0.200
G1 E0.80000 F2100.000
;TYPE:Perimeter
G1 F1200.000
G1 X128.472 Y92.547 E0.78802
G1 X145.922 Y92.543 E0.54713
G1 X145.922 Y117.457 E0.78116
G1 X128.489 Y117.456 E0.54658
G1 X103.995 Y111.746 E0.78858
G1 X103.995 Y98.314 E0.42116
G1 X103.618 Y97.955 F10800.000
;TYPE:External perimeter
G1 F1200.000
G1 X128.427 Y92.170 E0.79871
G1 X146.299 Y92.166 E0.56037
G1 X146.299 Y117.834 E0.80481
G1 X128.446 Y117.833 E0.55977
G1 X103.618 Y112.045 E0.79932
G1 X103.618 Y98.015 E0.43993
M73 Q2 S26
G1 X104.017 Y97.983 F10800.000
;WIPE_START
G1 F8640.000
G1 X106.822 Y97.260 E-0.76000
;WIPE_END
M73 P2 R26
G1 E-0.04000 F2100.000
G1 Z0.600 F10800.000
G1 X145.040 Y92.656
G1 Z0.200
G1 E0.80000 F2100.000
;TYPE:Solid infill
;WIDTH:0.423204
G1 F1200.000
G1 X145.639 Y93.256 E0.02680
G1 X145.639 Y93.793 E0.01701
G1 X144.672 Y92.826 E0.04325
G1 X144.134 Y92.826 E0.01700
G1 X145.639 Y94.331 E0.06730
G1 X145.639 Y94.869 E0.01701
G1 X143.596 Y92.826 E0.09134
G1 X143.059 Y92.826 E0.01700
G1 X145.639 Y95.407 E0.11539
G1 X145.639 Y95.945 E0.01701
G1 X142.521 Y92.827 E0.13943
G1 X141.983 Y92.827 E0.01700
G1 X145.639 Y96.482 E0.16347
G1 X145.639 Y97.020 E0.01701
G1 X141.446 Y92.827 E0.18752
G1 X140.908 Y92.827 E0.01700
G1 X145.639 Y97.558 E0.21156
G1 X145.639 Y98.096 E0.01701
G1 X140.370 Y92.827 E0.23561
G1 X139.833 Y92.827 E0.01700
G1 X145.639 Y98.634 E0.25965
G1 X145.639 Y99.171 E0.01701
G1 X139.295 Y92.827 E0.28369
G1 X138.757 Y92.827 E0.01700
G1 X145.639 Y99.709 E0.30774
G1 X145.639 Y100.247 E0.01701
G1 X138.219 Y92.828 E0.33178
G1 X137.682 Y92.828 E0.01700
G1 X145.639 Y100.785 E0.35583
G1 X145.639 Y101.323 E0.01701
G1 X137.144 Y92.828 E0.37987
G1 X136.606 Y92.828 E0.01700
G1 X145.639 Y101.860 E0.40391
G1 X145.639 Y102.398 E0.01701
G1 X136.069 Y92.828 E0.42796
G1 X135.531 Y92.828 E0.01700
G1 X145.639 Y102.936 E0.45200
G1 X145.639 Y103.474 E0.01701
G1 X134.993 Y92.828 E0.47605
G1 X134.456 Y92.829 E0.01700
G1 X145.639 Y104.012 E0.50009
G1 X145.639 Y104.549 E0.01701
G1 X133.918 Y92.829 E0.52413
G1 X133.380 Y92.829 E0.01700
G1 X145.639 Y105.087 E0.54818
G1 X145.639 Y105.625 E0.01701
G1 X132.843 Y92.829 E0.57222
G1 X132.305 Y92.829 E0.01700
G1 X145.639 Y106.163 E0.59627
G1 X145.639 Y106.701 E0.01701
G1 X131.767 Y92.829 E0.62031
G1 X131.230 Y92.829 E0.01700
G1 X145.639 Y107.238 E0.64435
M73 Q3 S26
G1 X145.639 Y107.776 E0.01701
G1 X130.692 Y92.829 E0.66840
M73 P3 R26
G1 X130.154 Y92.830 E0.01700
G1 X145.639 Y108.314 E0.69244
G1 X145.639 Y108.852 E0.01701
G1 X129.617 Y92.830 E0.71649
G1 X129.079 Y92.830 E0.01700
G1 X145.639 Y109.390 E0.74053
G1 X145.639 Y109.927 E0.01701
G1 X128.541 Y92.830 E0.76457
G1 X128.098 Y92.925 E0.01433
G1 X145.639 Y110.465 E0.78439
G1 X145.639 Y111.003 E0.01701
G1 X127.662 Y93.026 E0.80389
G1 X127.226 Y93.128 E0.01416
G1 X145.639 Y111.541 E0.82340
G1 X145.639 Y112.079 E0.01701
G1 X126.790 Y93.230 E0.84290
G1 X126.354 Y93.331 E0.01416
G1 X145.639 Y112.616 E0.86240
M73 P3 R25
G1 X145.639 Y113.154 E0.01701
G1 X125.918 Y93.433 E0.88190
G1 X125.481 Y93.535 E0.01416
G1 X145.639 Y113.692 E0.90141
G1 X145.639 Y114.230 E0.01701
G1 X125.045 Y93.636 E0.92091
M73 P4 R25
M73 Q4 S25
G1 X124.609 Y93.738 E0.01416
G1 X145.639 Y114.768 E0.94041
G1 X145.639 Y115.305 E0.01701
G1 X124.173 Y93.840 E0.95991
G1 X123.737 Y93.941 E0.01416
G1 X145.639 Y115.843 E0.97942
G1 X145.639 Y116.381 E0.01701
G1 X123.301 Y94.043 E0.99892
G1 X122.865 Y94.145 E0.01416
G1 X145.639 Y116.919 E1.01842
G1 X145.639 Y117.174 E0.00807
G1 X145.356 Y117.174 E0.00893
G1 X122.429 Y94.246 E1.02529
G1 X121.993 Y94.348 E0.01416
G1 X144.818 Y117.174 E1.02074
G1 X144.281 Y117.174 E0.01701
G1 X121.556 Y94.450 E1.01619
G1 X121.120 Y94.552 E0.01416
G1 X143.743 Y117.174 E1.01164
G1 X143.205 Y117.174 E0.01701
G1 X120.684 Y94.653 E1.00710
M73 P5 R25
M73 Q5 S25
G1 X120.248 Y94.755 E0.01416
G1 X142.667 Y117.174 E1.00255
G1 X142.129 Y117.174 E0.01701
G1 X119.812 Y94.857 E0.99800
G1 X119.376 Y94.958 E0.01416
G1 X141.591 Y117.174 E0.99345
G1 X141.054 Y117.174 E0.01701
G1 X118.940 Y95.060 E0.98890
G1 X118.504 Y95.162 E0.01416
G1 X140.516 Y117.174 E0.98435
G1 X139.978 Y117.174 E0.01701
G1 X118.067 Y95.263 E0.97980
G1 X117.631 Y95.365 E0.01416
G1 X139.440 Y117.174 E0.97525
G1 X138.902 Y117.174 E0.01701
G1 X117.195 Y95.467 E0.97071
G1 X116.759 Y95.568 E0.01416
G1 X138.364 Y117.174 E0.96616
G1 X137.827 Y117.174 E0.01701
G1 X116.323 Y95.670 E0.96161
M73 P6 R25
M73 Q6 S25
G1 X115.887 Y95.772 E0.01416
G1 X137.289 Y117.174 E0.95706
G1 X136.751 Y117.174 E0.01701
G1 X115.451 Y95.873 E0.95251
G1 X115.015 Y95.975 E0.01416
G1 X136.213 Y117.174 E0.94796
G1 X135.675 Y117.173 E0.01701
G1 X114.578 Y96.077 E0.94341
G1 X114.142 Y96.178 E0.01416
G1 X117.817 Y99.853 E0.16430
G1 X118.559 Y100.301 E0.02742
G1 X118.976 Y100.619 E0.01658
G1 X119.460 Y101.064 E0.02080
G1 X119.804 Y101.445 E0.01623
G1 X120.114 Y101.853 E0.01621
G1 X120.528 Y102.564 E0.02599
G1 X135.137 Y117.173 E0.65333
G1 X134.600 Y117.173 E0.01701
G1 X120.875 Y103.449 E0.61375
G1 X120.915 Y103.566 E0.00394
G1 X121.037 Y104.149 E0.01881
G1 X134.062 Y117.173 E0.58244
G1 X133.524 Y117.173 E0.01701
G1 X121.105 Y104.754 E0.55537
G1 X121.101 Y105.288 E0.01689
G1 X132.986 Y117.173 E0.53149
G1 X132.448 Y117.173 E0.01701
G1 X121.047 Y105.772 E0.50986
G1 X120.963 Y106.226 E0.01461
G1 X131.910 Y117.173 E0.48953
G1 X131.372 Y117.173 E0.01701
G1 X120.844 Y106.645 E0.47082
G1 X120.706 Y107.045 E0.01338
G1 X130.835 Y117.173 E0.45292
M73 Q7 S25
G1 X130.297 Y117.173 E0.01701
G1 X120.538 Y107.414 E0.43639
M73 P7 R25
G1 X120.347 Y107.761 E0.01252
G1 X129.759 Y117.173 E0.42089
G1 X129.221 Y117.173 E0.01701
G1 X120.144 Y108.096 E0.40590
G1 X119.914 Y108.403 E0.01215
G1 X128.683 Y117.173 E0.39216
G1 X128.522 Y117.173 E0.00511
G1 X128.031 Y117.059 E0.01593
G1 X119.678 Y108.705 E0.37356
G1 X119.414 Y108.980 E0.01203
G1 X127.330 Y116.895 E0.35397
G1 X126.629 Y116.732 E0.02277
G1 X119.134 Y109.238 E0.33512
G1 X118.845 Y109.485 E0.01206
G1 X125.927 Y116.568 E0.31673
G1 X125.226 Y116.405 E0.02277
G1 X118.535 Y109.713 E0.29923
G1 X118.208 Y109.925 E0.01230
G1 X124.525 Y116.241 E0.28246
G1 X123.823 Y116.078 E0.02277
G1 X117.867 Y110.121 E0.26638
G1 X117.509 Y110.301 E0.01267
G1 X123.122 Y115.914 E0.25102
G1 X122.421 Y115.751 E0.02277
G1 X117.132 Y110.462 E0.23650
G1 X116.735 Y110.603 E0.01332
G1 X121.720 Y115.587 E0.22290
G1 X121.018 Y115.424 E0.02277
G1 X116.320 Y110.726 E0.21008
M73 P7 R24
G1 X115.881 Y110.825 E0.01423
G1 X120.317 Y115.260 E0.19836
G1 X119.616 Y115.097 E0.02277
G1 X115.421 Y110.902 E0.18760
G1 X114.931 Y110.950 E0.01557
G1 X118.915 Y114.934 E0.17815
G1 X118.213 Y114.770 E0.02277
G1 X114.403 Y110.960 E0.17038
G1 X113.845 Y110.939 E0.01768
G1 X117.512 Y114.607 E0.16400
G1 X116.811 Y114.443 E0.02277
G1 X113.225 Y110.858 E0.16034
G1 X112.804 Y110.782 E0.01351
G1 X112.541 Y110.711 E0.00864
G1 X116.109 Y114.280 E0.15959
G1 X115.408 Y114.116 E0.02277
G1 X111.401 Y110.109 E0.17920
;WIPE_START
G1 F8640.000
G1 X113.728 Y112.436 E-0.76000
;WIPE_END
G1 E-0.04000 F2100.000
G1 Z0.600 F10800.000
G1 X117.165 Y99.739
G1 Z0.200
G1 E0.80000 F2100.000
G1 F1200.000
G1 X113.706 Y96.280 E0.15469
G1 X113.270 Y96.382 E0.01416
G1 X116.113 Y99.225 E0.12714
G1 X115.453 Y99.103 E0.02123
G1 X112.834 Y96.483 E0.11712
G1 X112.398 Y96.585 E0.01416
G1 X114.863 Y99.050 E0.11024
G1 X114.310 Y99.035 E0.01749
G1 X111.962 Y96.687 E0.10502
G1 X111.526 Y96.789 E0.01416
M73 Q7 S24
G1 X113.802 Y99.065 E0.10182
G1 X113.328 Y99.128 E0.01515
G1 X111.090 Y96.890 E0.10008
G1 X110.653 Y96.992 E0.01416
G1 X112.871 Y99.209 E0.09915
G1 X112.441 Y99.317 E0.01401
G1 X110.217 Y97.094 E0.09945
G1 X109.781 Y97.195 E0.01416
G1 X112.032 Y99.446 E0.10065
G1 X111.644 Y99.596 E0.01315
G1 X109.345 Y97.297 E0.10281
G1 X108.909 Y97.399 E0.01416
G1 X111.275 Y99.765 E0.10580
G1 X110.922 Y99.949 E0.01260
G1 X108.473 Y97.500 E0.10951
G1 X108.037 Y97.602 E0.01416
G1 X110.585 Y100.151 E0.11398
G1 X110.270 Y100.373 E0.01221
G1 X107.601 Y97.704 E0.11936
G1 X107.164 Y97.805 E0.01416
G1 X109.964 Y100.604 E0.12517
G1 X109.674 Y100.852 E0.01206
G1 X106.728 Y97.907 E0.13171
G1 X106.292 Y98.009 E0.01416
G1 X109.410 Y101.126 E0.13941
G1 X109.149 Y101.403 E0.01203
G1 X105.856 Y98.110 E0.14726
G1 X105.420 Y98.212 E0.01416
G1 X108.913 Y101.705 E0.15621
G1 X108.699 Y102.029 E0.01227
G1 X104.984 Y98.314 E0.16614
G1 X104.548 Y98.415 E0.01416
G1 X108.493 Y102.361 E0.17642
M73 P8 R24
M73 Q8 S24
G1 X108.316 Y102.721 E0.01270
G1 X104.278 Y98.684 E0.18055
G1 X104.278 Y99.222 E0.01701
G1 X108.162 Y103.106 E0.17369
G1 X108.023 Y103.504 E0.01334
G1 X104.278 Y99.759 E0.16745
G1 X104.278 Y100.297 E0.01701
G1 X107.919 Y103.938 E0.16282
G1 X107.853 Y104.410 E0.01506
G1 X104.278 Y100.835 E0.15986
G1 X104.278 Y101.373 E0.01701
G1 X107.814 Y104.909 E0.15812
G1 X107.813 Y105.258 E0.01104
G1 X107.837 Y105.470 E0.00675
G1 X104.278 Y101.911 E0.15917
G1 X104.278 Y102.448 E0.01701
G1 X107.924 Y106.095 E0.16305
G1 X108.013 Y106.472 E0.01225
G1 X108.150 Y106.858 E0.01297
